DEF 09_robCode 
PTP $POS_ACT
LIN {X 0.000000, Y 0.000000, Z 1.000000, A 0.000000, B 180.000000, C 0.000000}
LIN {X 1021.624863, Y -545.377307, Z 632.743089, A 0.000000, B 180.000000, C 0.000000}
LIN {X 1021.624863, Y -545.377307, Z 632.743089, A 0.000000, B 180.000000, C 0.000000}
LIN {X 1021.767135, Y -543.772954, Z 632.688556, A 0.000000, B 180.000000, C 0.000000}
LIN {X 1022.241826, Y -542.445225, Z 632.645360, A 0.000000, B 180.000000, C 0.000000}
LIN {X 1022.283132, Y -541.108649, Z 632.466088, A 0.000000, B 180.000000, C 0.000000}
LIN {X 1022.284157, Y -540.078524, Z 632.325378, A 0.000000, B 180.000000, C 0.000000}
LIN {X 1022.297113, Y -539.373489, Z 632.234083, A 0.000000, B 180.000000, C 0.000000}
LIN {X 1022.599938, Y -538.918335, Z 632.282515, A 0.000000, B 180.000000, C 0.000000}
LIN {X 1022.907510, Y -538.587873, Z 632.314427, A 0.000000, B 180.000000, C 0.000000}
LIN {X 1023.023155, Y -538.223351, Z 632.323269, A 0.000000, B 180.000000, C 0.000000}
LIN {X 1022.837726, Y -533.885710, Z 632.187934, A 0.000000, B 180.000000, C 0.000000}
LIN {X 1024.427090, Y -530.118381, Z 632.477644, A 0.000000, B 180.000000, C 0.000000}
LIN {X 1025.000183, Y -525.585725, Z 632.566756, A 0.000000, B 180.000000, C 0.000000}
LIN {X 1023.946238, Y -522.047174, Z 632.232060, A 0.000000, B 180.000000, C 0.000000}
LIN {X 1024.222782, Y -520.908083, Z 632.261327, A 0.000000, B 180.000000, C 0.000000}
LIN {X 1024.477815, Y -519.780337, Z 632.289413, A 0.000000, B 180.000000, C 0.000000}
LIN {X 1024.625708, Y -518.746163, Z 632.282897, A 0.000000, B 180.000000, C 0.000000}
LIN {X 1024.920359, Y -517.693042, Z 632.331946, A 0.000000, B 180.000000, C 0.000000}
LIN {X 1025.509893, Y -510.512803, Z 632.391598, A 0.000000, B 180.000000, C 0.000000}
LIN {X 1025.545099, Y -509.480336, Z 632.403736, A 0.000000, B 180.000000, C 0.000000}
LIN {X 1025.601047, Y -508.309005, Z 632.418478, A 0.000000, B 180.000000, C 0.000000}
LIN {X 1024.446400, Y -503.429065, Z 632.096042, A 0.000000, B 180.000000, C 0.000000}
LIN {X 1025.168633, Y -499.617332, Z 632.168408, A 0.000000, B 180.000000, C 0.000000}
LIN {X 1024.706291, Y -494.746709, Z 631.732536, A 0.000000, B 180.000000, C 0.000000}
LIN {X 1024.521982, Y -493.222685, Z 631.503586, A 0.000000, B 180.000000, C 0.000000}
LIN {X 1024.349646, Y -491.757614, Z 631.269830, A 0.000000, B 180.000000, C 0.000000}
LIN {X 1027.441471, Y -469.738361, Z 630.740629, A 0.000000, B 180.000000, C 0.000000}
LIN {X 1025.860606, Y -462.694053, Z 630.065267, A 0.000000, B 180.000000, C 0.000000}
LIN {X 1025.893751, Y -460.829632, Z 630.092094, A 0.000000, B 180.000000, C 0.000000}
LIN {X 1025.553139, Y -458.781905, Z 629.989860, A 0.000000, B 180.000000, C 0.000000}
LIN {X 1028.161596, Y -452.816692, Z 630.594787, A 0.000000, B 180.000000, C 0.000000}
LIN {X 1028.410596, Y -450.476241, Z 630.600820, A 0.000000, B 180.000000, C 0.000000}
LIN {X 1028.424573, Y -448.189339, Z 630.547525, A 0.000000, B 180.000000, C 0.000000}
LIN {X 1027.861696, Y -445.874417, Z 630.330343, A 0.000000, B 180.000000, C 0.000000}
LIN {X 1027.027974, Y -443.580933, Z 630.032179, A 0.000000, B 180.000000, C 0.000000}
LIN {X 1026.253176, Y -441.432101, Z 629.763771, A 0.000000, B 180.000000, C 0.000000}
LIN {X 1026.744518, Y -431.732777, Z 629.860034, A 0.000000, B 180.000000, C 0.000000}
LIN {X 1026.838933, Y -429.870226, Z 629.917729, A 0.000000, B 180.000000, C 0.000000}
LIN {X 1027.152603, Y -428.081908, Z 630.048719, A 0.000000, B 180.000000, C 0.000000}
LIN {X 1025.317168, Y -422.213827, Z 629.454559, A 0.000000, B 180.000000, C 0.000000}
LIN {X 1024.548995, Y -420.282851, Z 629.149467, A 0.000000, B 180.000000, C 0.000000}
LIN {X 1024.064385, Y -410.499504, Z 628.662638, A 0.000000, B 180.000000, C 0.000000}
LIN {X 1024.050522, Y -408.372182, Z 628.719486, A 0.000000, B 180.000000, C 0.000000}
LIN {X 1021.876886, Y -396.312338, Z 628.048849, A 0.000000, B 180.000000, C 0.000000}
LIN {X 1021.644497, Y -394.480308, Z 627.890612, A 0.000000, B 180.000000, C 0.000000}
LIN {X 1021.378896, Y -392.763945, Z 627.789178, A 0.000000, B 180.000000, C 0.000000}
LIN {X 1021.119761, Y -390.886125, Z 627.720302, A 0.000000, B 180.000000, C 0.000000}
LIN {X 1018.076648, Y -378.443378, Z 627.367293, A 0.000000, B 180.000000, C 0.000000}
LIN {X 1013.008267, Y -347.441406, Z 627.764609, A 0.000000, B 180.000000, C 0.000000}
LIN {X 1010.661305, Y -340.743166, Z 627.778411, A 0.000000, B 180.000000, C 0.000000}
LIN {X 1010.690876, Y -332.478884, Z 627.892917, A 0.000000, B 180.000000, C 0.000000}
LIN {X 1009.574251, Y -325.404402, Z 627.596659, A 0.000000, B 180.000000, C 0.000000}
LIN {X 1009.926038, Y -318.940199, Z 627.715108, A 0.000000, B 180.000000, C 0.000000}
LIN {X 1008.559023, Y -311.955018, Z 627.269113, A 0.000000, B 180.000000, C 0.000000}
LIN {X 1008.988966, Y -301.503031, Z 626.813407, A 0.000000, B 180.000000, C 0.000000}
LIN {X 1009.189066, Y -299.372733, Z 626.681545, A 0.000000, B 180.000000, C 0.000000}
LIN {X 1009.563790, Y -297.327361, Z 626.625821, A 0.000000, B 180.000000, C 0.000000}
LIN {X 1009.790600, Y -295.065448, Z 626.525158, A 0.000000, B 180.000000, C 0.000000}
LIN {X 1009.491418, Y -287.871502, Z 626.113935, A 0.000000, B 180.000000, C 0.000000}
LIN {X 1009.773559, Y -285.597207, Z 626.061948, A 0.000000, B 180.000000, C 0.000000}
LIN {X 1009.957171, Y -283.455329, Z 626.004123, A 0.000000, B 180.000000, C 0.000000}
LIN {X 1010.061534, Y -281.381994, Z 625.941985, A 0.000000, B 180.000000, C 0.000000}
LIN {X 1009.534534, Y -275.328064, Z 625.705471, A 0.000000, B 180.000000, C 0.000000}
LIN {X 1009.412695, Y -273.236826, Z 625.645440, A 0.000000, B 180.000000, C 0.000000}
LIN {X 1010.108598, Y -264.198425, Z 625.457836, A 0.000000, B 180.000000, C 0.000000}
LIN {X 1010.373546, Y -262.128471, Z 625.415322, A 0.000000, B 180.000000, C 0.000000}
LIN {X 1010.439290, Y -260.051790, Z 625.304688, A 0.000000, B 180.000000, C 0.000000}
LIN {X 1010.092061, Y -253.302255, Z 624.842568, A 0.000000, B 180.000000, C 0.000000}
LIN {X 1010.164376, Y -251.002980, Z 624.782401, A 0.000000, B 180.000000, C 0.000000}
LIN {X 1010.157544, Y -248.764268, Z 624.721130, A 0.000000, B 180.000000, C 0.000000}
LIN {X 1010.054492, Y -246.498946, Z 624.683289, A 0.000000, B 180.000000, C 0.000000}
LIN {X 1010.478643, Y -235.710016, Z 624.550968, A 0.000000, B 180.000000, C 0.000000}
LIN {X 1008.671182, Y -226.526309, Z 624.024361, A 0.000000, B 180.000000, C 0.000000}
LIN {X 1007.834838, Y -217.735438, Z 624.039921, A 0.000000, B 180.000000, C 0.000000}
LIN {X 1006.111038, Y -191.200463, Z 623.518160, A 0.000000, B 180.000000, C 0.000000}
LIN {X 1005.980822, Y -189.000255, Z 623.445733, A 0.000000, B 180.000000, C 0.000000}
LIN {X 1005.964051, Y -186.827438, Z 623.419680, A 0.000000, B 180.000000, C 0.000000}
LIN {X 1005.731479, Y -184.634568, Z 623.382973, A 0.000000, B 180.000000, C 0.000000}
LIN {X 1004.244428, Y -178.246911, Z 623.288416, A 0.000000, B 180.000000, C 0.000000}
LIN {X 1003.797277, Y -176.051285, Z 623.283704, A 0.000000, B 180.000000, C 0.000000}
LIN {X 1002.502410, Y -165.562587, Z 623.169410, A 0.000000, B 180.000000, C 0.000000}
LIN {X 1002.612033, Y -159.417546, Z 623.422559, A 0.000000, B 180.000000, C 0.000000}
LIN {X 1000.164037, Y -151.477514, Z 623.250995, A 0.000000, B 180.000000, C 0.000000}
LIN {X 1001.863970, Y -142.862048, Z 623.247904, A 0.000000, B 180.000000, C 0.000000}
LIN {X 1002.021854, Y -140.600814, Z 623.129899, A 0.000000, B 180.000000, C 0.000000}
LIN {X 1001.524513, Y -134.508775, Z 622.812016, A 0.000000, B 180.000000, C 0.000000}
LIN {X 1001.379099, Y -132.632393, Z 622.684233, A 0.000000, B 180.000000, C 0.000000}
LIN {X 1002.467287, Y -124.743670, Z 622.242025, A 0.000000, B 180.000000, C 0.000000}
LIN {X 1002.815756, Y -114.016425, Z 621.772965, A 0.000000, B 180.000000, C 0.000000}
LIN {X 1002.764536, Y -112.009113, Z 621.687371, A 0.000000, B 180.000000, C 0.000000}
LIN {X 1002.967319, Y -109.960729, Z 621.630054, A 0.000000, B 180.000000, C 0.000000}
LIN {X 1002.938636, Y -107.983075, Z 621.514365, A 0.000000, B 180.000000, C 0.000000}
LIN {X 1003.025592, Y -106.031903, Z 621.423519, A 0.000000, B 180.000000, C 0.000000}
LIN {X 1003.321027, Y -104.271082, Z 621.400522, A 0.000000, B 180.000000, C 0.000000}
LIN {X 1003.309350, Y -102.435472, Z 621.334714, A 0.000000, B 180.000000, C 0.000000}
LIN {X 1003.595296, Y -100.656080, Z 621.339120, A 0.000000, B 180.000000, C 0.000000}
LIN {X 1003.612988, Y -98.665044, Z 621.234060, A 0.000000, B 180.000000, C 0.000000}
LIN {X 1001.882036, Y -70.096076, Z 620.194236, A 0.000000, B 180.000000, C 0.000000}
LIN {X 1001.687097, Y -68.106800, Z 620.100808, A 0.000000, B 180.000000, C 0.000000}
LIN {X 1001.671458, Y -66.126375, Z 620.026869, A 0.000000, B 180.000000, C 0.000000}
LIN {X 1001.639294, Y -64.366025, Z 619.993767, A 0.000000, B 180.000000, C 0.000000}
LIN {X 1000.235181, Y -59.110892, Z 619.612292, A 0.000000, B 180.000000, C 0.000000}
LIN {X 999.784101, Y -57.416886, Z 619.441486, A 0.000000, B 180.000000, C 0.000000}
LIN {X 999.425441, Y -55.708821, Z 619.252293, A 0.000000, B 180.000000, C 0.000000}
LIN {X 999.820062, Y -54.054608, Z 619.155169, A 0.000000, B 180.000000, C 0.000000}
LIN {X 999.923167, Y -52.366045, Z 618.965817, A 0.000000, B 180.000000, C 0.000000}
LIN {X 1000.194854, Y -50.764017, Z 618.765760, A 0.000000, B 180.000000, C 0.000000}
LIN {X 999.069845, Y -34.183915, Z 615.496492, A 0.000000, B 180.000000, C 0.000000}
LIN {X 999.316587, Y -24.133395, Z 614.335881, A 0.000000, B 180.000000, C 0.000000}
LIN {X 1000.348149, Y -15.539798, Z 613.761126, A 0.000000, B 180.000000, C 0.000000}
LIN {X 1000.477493, Y -14.330360, Z 613.614343, A 0.000000, B 180.000000, C 0.000000}
LIN {X 1000.752990, Y -13.146331, Z 613.485156, A 0.000000, B 180.000000, C 0.000000}
LIN {X 1000.955772, Y -11.808619, Z 613.314272, A 0.000000, B 180.000000, C 0.000000}
LIN {X 1001.001585, Y -10.292116, Z 613.099357, A 0.000000, B 180.000000, C 0.000000}
LIN {X 1003.144613, Y -0.960393, Z 611.736854, A 0.000000, B 180.000000, C 0.000000}
LIN {X 1003.705389, Y 0.317657, Z 611.580411, A 0.000000, B 180.000000, C 0.000000}
LIN {X 1004.250034, Y 1.466934, Z 611.417214, A 0.000000, B 180.000000, C 0.000000}
LIN {X 1004.403448, Y 2.573076, Z 611.247170, A 0.000000, B 180.000000, C 0.000000}
LIN {X 1004.646138, Y 3.635128, Z 611.104138, A 0.000000, B 180.000000, C 0.000000}
LIN {X 1004.863162, Y 4.931085, Z 610.985020, A 0.000000, B 180.000000, C 0.000000}
LIN {X 1005.095227, Y 6.511963, Z 610.824888, A 0.000000, B 180.000000, C 0.000000}
LIN {X 1005.542147, Y 20.264073, Z 608.721602, A 0.000000, B 180.000000, C 0.000000}
LIN {X 1005.518473, Y 32.643729, Z 604.582680, A 0.000000, B 180.000000, C 0.000000}
LIN {X 1006.525433, Y 35.996395, Z 602.855001, A 0.000000, B 180.000000, C 0.000000}
LIN {X 1006.832437, Y 41.861021, Z 599.314988, A 0.000000, B 180.000000, C 0.000000}
LIN {X 1006.611378, Y 49.756697, Z 595.815049, A 0.000000, B 180.000000, C 0.000000}
LIN {X 1007.629596, Y 53.812717, Z 594.179237, A 0.000000, B 180.000000, C 0.000000}
LIN {X 1007.855294, Y 54.761806, Z 593.846800, A 0.000000, B 180.000000, C 0.000000}
LIN {X 1008.282073, Y 55.678535, Z 593.571396, A 0.000000, B 180.000000, C 0.000000}
LIN {X 1008.601934, Y 56.559775, Z 593.350261, A 0.000000, B 180.000000, C 0.000000}
LIN {X 1008.676118, Y 57.397938, Z 593.153124, A 0.000000, B 180.000000, C 0.000000}
LIN {X 1010.798299, Y 65.819184, Z 592.790380, A 0.000000, B 180.000000, C 0.000000}
LIN {X 1012.435825, Y 68.642469, Z 593.300742, A 0.000000, B 180.000000, C 0.000000}
LIN {X 1014.114131, Y 70.218348, Z 594.331819, A 0.000000, B 180.000000, C 0.000000}
LIN {X 1015.000097, Y 70.627308, Z 594.824662, A 0.000000, B 180.000000, C 0.000000}
LIN {X 1015.624589, Y 71.276329, Z 595.268843, A 0.000000, B 180.000000, C 0.000000}
LIN {X 1019.166107, Y 77.864861, Z 598.388567, A 0.000000, B 180.000000, C 0.000000}
LIN {X 1026.070891, Y 81.032792, Z 604.114751, A 0.000000, B 180.000000, C 0.000000}
LIN {X 1028.793513, Y 81.797550, Z 605.437195, A 0.000000, B 180.000000, C 0.000000}
LIN {X 1029.792403, Y 81.824000, Z 605.857141, A 0.000000, B 180.000000, C 0.000000}
LIN {X 1032.750290, Y 81.306293, Z 606.977366, A 0.000000, B 180.000000, C 0.000000}
LIN {X 1036.990903, Y 79.977098, Z 608.105990, A 0.000000, B 180.000000, C 0.000000}
LIN {X 1037.943056, Y 79.712741, Z 608.295822, A 0.000000, B 180.000000, C 0.000000}
LIN {X 1039.046539, Y 79.553605, Z 608.434917, A 0.000000, B 180.000000, C 0.000000}
LIN {X 1040.000262, Y 79.341055, Z 608.534025, A 0.000000, B 180.000000, C 0.000000}
LIN {X 1043.814620, Y 78.564519, Z 608.899585, A 0.000000, B 180.000000, C 0.000000}
LIN {X 1071.549156, Y 66.850174, Z 609.937321, A 0.000000, B 180.000000, C 0.000000}
LIN {X 1098.113191, Y 51.699135, Z 615.310920, A 0.000000, B 180.000000, C 0.000000}
LIN {X 1105.657632, Y 46.765322, Z 616.686923, A 0.000000, B 180.000000, C 0.000000}
LIN {X 1117.200015, Y 39.989239, Z 617.958743, A 0.000000, B 180.000000, C 0.000000}
LIN {X 1118.767726, Y 38.944983, Z 618.114589, A 0.000000, B 180.000000, C 0.000000}
LIN {X 1124.306276, Y 34.538764, Z 618.709289, A 0.000000, B 180.000000, C 0.000000}
LIN {X 1125.857557, Y 33.438907, Z 618.893936, A 0.000000, B 180.000000, C 0.000000}
LIN {X 1127.407414, Y 32.470366, Z 619.078535, A 0.000000, B 180.000000, C 0.000000}
LIN {X 1137.411287, Y 27.435818, Z 620.450515, A 0.000000, B 180.000000, C 0.000000}
LIN {X 1138.840455, Y 26.759748, Z 620.620781, A 0.000000, B 180.000000, C 0.000000}
LIN {X 1155.563815, Y 15.806811, Z 620.956655, A 0.000000, B 180.000000, C 0.000000}
LIN {X 1156.855934, Y 14.776463, Z 621.003979, A 0.000000, B 180.000000, C 0.000000}
LIN {X 1158.304812, Y 13.812747, Z 621.050909, A 0.000000, B 180.000000, C 0.000000}
LIN {X 1179.343492, Y 3.185182, Z 621.404055, A 0.000000, B 180.000000, C 0.000000}
LIN {X 1186.757374, Y -1.965248, Z 621.811260, A 0.000000, B 180.000000, C 0.000000}
LIN {X 1188.156093, Y -2.850203, Z 621.896873, A 0.000000, B 180.000000, C 0.000000}
LIN {X 1189.362903, Y -3.679134, Z 621.934659, A 0.000000, B 180.000000, C 0.000000}
LIN {X 1190.648518, Y -4.448949, Z 621.975675, A 0.000000, B 180.000000, C 0.000000}
LIN {X 1195.204369, Y -7.860706, Z 621.989248, A 0.000000, B 180.000000, C 0.000000}
LIN {X 1196.559022, Y -8.784566, Z 622.068282, A 0.000000, B 180.000000, C 0.000000}
LIN {X 1206.643035, Y -16.980023, Z 622.416155, A 0.000000, B 180.000000, C 0.000000}
LIN {X 1207.974072, Y -17.740317, Z 622.467604, A 0.000000, B 180.000000, C 0.000000}
LIN {X 1209.062393, Y -18.715905, Z 622.515222, A 0.000000, B 180.000000, C 0.000000}
LIN {X 1210.085754, Y -19.734736, Z 622.565424, A 0.000000, B 180.000000, C 0.000000}
LIN {X 1211.133062, Y -20.714174, Z 622.615534, A 0.000000, B 180.000000, C 0.000000}
LIN {X 1216.336731, Y -23.958935, Z 622.561966, A 0.000000, B 180.000000, C 0.000000}
LIN {X 1225.615671, Y -33.387782, Z 622.498000, A 0.000000, B 180.000000, C 0.000000}
LIN {X 1228.141879, Y -37.170676, Z 622.744931, A 0.000000, B 180.000000, C 0.000000}
LIN {X 1234.142281, Y -42.919651, Z 622.810253, A 0.000000, B 180.000000, C 0.000000}
LIN {X 1245.661444, Y -50.390904, Z 623.070025, A 0.000000, B 180.000000, C 0.000000}
LIN {X 1251.461036, Y -55.959538, Z 623.239229, A 0.000000, B 180.000000, C 0.000000}
LIN {X 1254.239975, Y -59.578053, Z 623.266975, A 0.000000, B 180.000000, C 0.000000}
LIN {X 1254.897771, Y -61.249651, Z 623.221783, A 0.000000, B 180.000000, C 0.000000}
LIN {X 1257.477380, Y -62.768371, Z 623.441529, A 0.000000, B 180.000000, C 0.000000}
LIN {X 1259.115576, Y -64.873291, Z 623.411214, A 0.000000, B 180.000000, C 0.000000}
LIN {X 1261.591007, Y -66.624306, Z 623.447217, A 0.000000, B 180.000000, C 0.000000}
LIN {X 1263.970997, Y -68.138206, Z 623.596300, A 0.000000, B 180.000000, C 0.000000}
LIN {X 1264.221302, Y -69.185705, Z 623.591671, A 0.000000, B 180.000000, C 0.000000}
LIN {X 1265.345636, Y -69.693611, Z 623.486368, A 0.000000, B 180.000000, C 0.000000}
LIN {X 1265.574586, Y -69.775676, Z 623.487560, A 0.000000, B 180.000000, C 0.000000}
LIN {X 1265.834165, Y -69.913915, Z 623.486295, A 0.000000, B 180.000000, C 0.000000}
LIN {X 1268.667303, Y -72.782816, Z 623.567694, A 0.000000, B 180.000000, C 0.000000}
LIN {X 1268.921968, Y -73.388565, Z 623.551463, A 0.000000, B 180.000000, C 0.000000}
LIN {X 1269.165917, Y -73.944085, Z 623.551491, A 0.000000, B 180.000000, C 0.000000}
LIN {X 1274.662409, Y -76.580208, Z 623.672397, A 0.000000, B 180.000000, C 0.000000}
LIN {X 1275.368452, Y -76.929922, Z 623.655709, A 0.000000, B 180.000000, C 0.000000}
LIN {X 1278.025062, Y -79.042584, Z 623.700547, A 0.000000, B 180.000000, C 0.000000}
LIN {X 1285.304720, Y -81.515715, Z 623.782838, A 0.000000, B 180.000000, C 0.000000}
LIN {X 1295.878173, Y -87.802941, Z 623.850717, A 0.000000, B 180.000000, C 0.000000}
LIN {X 1297.582075, Y -88.638937, Z 623.807202, A 0.000000, B 180.000000, C 0.000000}
LIN {X 1299.044685, Y -89.504319, Z 623.757322, A 0.000000, B 180.000000, C 0.000000}
LIN {X 1327.597664, Y -103.009618, Z 623.519034, A 0.000000, B 180.000000, C 0.000000}
LIN {X 1348.565354, Y -114.576622, Z 623.308538, A 0.000000, B 180.000000, C 0.000000}
LIN {X 1359.737520, Y -119.979760, Z 622.934351, A 0.000000, B 180.000000, C 0.000000}
LIN {X 1366.562963, Y -124.108891, Z 622.765784, A 0.000000, B 180.000000, C 0.000000}
LIN {X 1368.906493, Y -125.524351, Z 622.716260, A 0.000000, B 180.000000, C 0.000000}
LIN {X 1371.300070, Y -126.941050, Z 622.692296, A 0.000000, B 180.000000, C 0.000000}
LIN {X 1373.696357, Y -128.196941, Z 622.672323, A 0.000000, B 180.000000, C 0.000000}
LIN {X 1376.055237, Y -129.517647, Z 622.630686, A 0.000000, B 180.000000, C 0.000000}
LIN {X 1378.509607, Y -130.868305, Z 622.590043, A 0.000000, B 180.000000, C 0.000000}
LIN {X 1391.499573, Y -140.517233, Z 622.067387, A 0.000000, B 180.000000, C 0.000000}
LIN {X 1394.013834, Y -142.329964, Z 622.093436, A 0.000000, B 180.000000, C 0.000000}
LIN {X 1396.344460, Y -144.117695, Z 622.112728, A 0.000000, B 180.000000, C 0.000000}
LIN {X 1398.737065, Y -145.741156, Z 622.145865, A 0.000000, B 180.000000, C 0.000000}
LIN {X 1400.479078, Y -147.086926, Z 622.081165, A 0.000000, B 180.000000, C 0.000000}
LIN {X 1418.446692, Y -158.783816, Z 621.614360, A 0.000000, B 180.000000, C 0.000000}
LIN {X 1428.109947, Y -166.135278, Z 621.343254, A 0.000000, B 180.000000, C 0.000000}
LIN {X 1457.943740, Y -192.117628, Z 621.181074, A 0.000000, B 180.000000, C 0.000000}
LIN {X 1466.459665, Y -198.900325, Z 620.713170, A 0.000000, B 180.000000, C 0.000000}
LIN {X 1476.352045, Y -209.525933, Z 620.862043, A 0.000000, B 180.000000, C 0.000000}
LIN {X 1487.503279, Y -220.227204, Z 620.655337, A 0.000000, B 180.000000, C 0.000000}
LIN {X 1498.817732, Y -238.863976, Z 620.928510, A 0.000000, B 180.000000, C 0.000000}
LIN {X 1505.328508, Y -252.696237, Z 621.281828, A 0.000000, B 180.000000, C 0.000000}
LIN {X 1507.732047, Y -259.669508, Z 621.417238, A 0.000000, B 180.000000, C 0.000000}
LIN {X 1508.271900, Y -261.405916, Z 621.375713, A 0.000000, B 180.000000, C 0.000000}
LIN {X 1512.276532, Y -280.046898, Z 621.898126, A 0.000000, B 180.000000, C 0.000000}
LIN {X 1512.580716, Y -281.769038, Z 621.912996, A 0.000000, B 180.000000, C 0.000000}
LIN {X 1512.933595, Y -283.576590, Z 621.903102, A 0.000000, B 180.000000, C 0.000000}
LIN {X 1513.318591, Y -285.532129, Z 621.913511, A 0.000000, B 180.000000, C 0.000000}
LIN {X 1513.825880, Y -287.799834, Z 621.945782, A 0.000000, B 180.000000, C 0.000000}
LIN {X 1515.068919, Y -295.580108, Z 622.241239, A 0.000000, B 180.000000, C 0.000000}
LIN {X 1515.249415, Y -297.921963, Z 622.391854, A 0.000000, B 180.000000, C 0.000000}
LIN {X 1515.406505, Y -299.844982, Z 622.525033, A 0.000000, B 180.000000, C 0.000000}
LIN {X 1516.779374, Y -303.507966, Z 622.732778, A 0.000000, B 180.000000, C 0.000000}
LIN {X 1518.015879, Y -309.980760, Z 622.799881, A 0.000000, B 180.000000, C 0.000000}
LIN {X 1518.355736, Y -312.180476, Z 622.960758, A 0.000000, B 180.000000, C 0.000000}
LIN {X 1518.575641, Y -314.299662, Z 623.145498, A 0.000000, B 180.000000, C 0.000000}
LIN {X 1518.831734, Y -316.221875, Z 623.339686, A 0.000000, B 180.000000, C 0.000000}
LIN {X 1518.756200, Y -319.629452, Z 623.435992, A 0.000000, B 180.000000, C 0.000000}
LIN {X 1520.100063, Y -323.307889, Z 623.324429, A 0.000000, B 180.000000, C 0.000000}
LIN {X 1520.586736, Y -334.503080, Z 623.821903, A 0.000000, B 180.000000, C 0.000000}
LIN {X 1520.624064, Y -336.151573, Z 623.969839, A 0.000000, B 180.000000, C 0.000000}
LIN {X 1520.599756, Y -337.649809, Z 624.050072, A 0.000000, B 180.000000, C 0.000000}
LIN {X 1517.970841, Y -347.285847, Z 623.738930, A 0.000000, B 180.000000, C 0.000000}
LIN {X 1516.450001, Y -356.261497, Z 624.193861, A 0.000000, B 180.000000, C 0.000000}
LIN {X 1516.229156, Y -357.171570, Z 624.305282, A 0.000000, B 180.000000, C 0.000000}
LIN {X 1514.064426, Y -362.458634, Z 624.021513, A 0.000000, B 180.000000, C 0.000000}
LIN {X 1512.881582, Y -374.131961, Z 624.690697, A 0.000000, B 180.000000, C 0.000000}
LIN {X 1512.770270, Y -374.944771, Z 624.909216, A 0.000000, B 180.000000, C 0.000000}
LIN {X 1512.439928, Y -375.495572, Z 625.019248, A 0.000000, B 180.000000, C 0.000000}
LIN {X 1512.243784, Y -376.092498, Z 625.044357, A 0.000000, B 180.000000, C 0.000000}
LIN {X 1511.831774, Y -376.982185, Z 624.972563, A 0.000000, B 180.000000, C 0.000000}
LIN {X 1511.606097, Y -378.337890, Z 624.893347, A 0.000000, B 180.000000, C 0.000000}
LIN {X 1511.139141, Y -380.096357, Z 624.784385, A 0.000000, B 180.000000, C 0.000000}
LIN {X 1509.794016, Y -390.246094, Z 625.197461, A 0.000000, B 180.000000, C 0.000000}
LIN {X 1509.518591, Y -391.657130, Z 625.396513, A 0.000000, B 180.000000, C 0.000000}
LIN {X 1509.334299, Y -392.619586, Z 625.596737, A 0.000000, B 180.000000, C 0.000000}
LIN {X 1509.184418, Y -393.360857, Z 625.736083, A 0.000000, B 180.000000, C 0.000000}
LIN {X 1509.071808, Y -394.054996, Z 625.813996, A 0.000000, B 180.000000, C 0.000000}
LIN {X 1506.938606, Y -412.972433, Z 626.371585, A 0.000000, B 180.000000, C 0.000000}
LIN {X 1506.828107, Y -413.888596, Z 626.456571, A 0.000000, B 180.000000, C 0.000000}
LIN {X 1506.794969, Y -414.750328, Z 626.479594, A 0.000000, B 180.000000, C 0.000000}
LIN {X 1506.714002, Y -429.946101, Z 626.838218, A 0.000000, B 180.000000, C 0.000000}
LIN {X 1507.158402, Y -430.598523, Z 626.986028, A 0.000000, B 180.000000, C 0.000000}
LIN {X 1507.276220, Y -430.903253, Z 626.992427, A 0.000000, B 180.000000, C 0.000000}
LIN {X 1507.626229, Y -431.288360, Z 626.983015, A 0.000000, B 180.000000, C 0.000000}
LIN {X 1508.038592, Y -434.394755, Z 626.660025, A 0.000000, B 180.000000, C 0.000000}
LIN {X 1507.571483, Y -440.497905, Z 626.623246, A 0.000000, B 180.000000, C 0.000000}
LIN {X 1507.741707, Y -442.571970, Z 626.799313, A 0.000000, B 180.000000, C 0.000000}
LIN {X 1507.995265, Y -444.226666, Z 627.010461, A 0.000000, B 180.000000, C 0.000000}
LIN {X 1508.316151, Y -445.446456, Z 627.225075, A 0.000000, B 180.000000, C 0.000000}
LIN {X 1508.557138, Y -446.286584, Z 627.369055, A 0.000000, B 180.000000, C 0.000000}
LIN {X 1508.741642, Y -446.821807, Z 627.448876, A 0.000000, B 180.000000, C 0.000000}
LIN {X 1509.538981, Y -451.902129, Z 627.372698, A 0.000000, B 180.000000, C 0.000000}
LIN {X 1509.621824, Y -453.773581, Z 627.364552, A 0.000000, B 180.000000, C 0.000000}
LIN {X 1509.177184, Y -459.601062, Z 627.621097, A 0.000000, B 180.000000, C 0.000000}
LIN {X 1509.030538, Y -460.444031, Z 627.708671, A 0.000000, B 180.000000, C 0.000000}
LIN {X 1509.015712, Y -461.268276, Z 627.767778, A 0.000000, B 180.000000, C 0.000000}
LIN {X 1510.592555, Y -469.307753, Z 627.764907, A 0.000000, B 180.000000, C 0.000000}
LIN {X 1511.004532, Y -470.561635, Z 627.881441, A 0.000000, B 180.000000, C 0.000000}
LIN {X 1511.554064, Y -475.723801, Z 628.011820, A 0.000000, B 180.000000, C 0.000000}
LIN {X 1511.330802, Y -476.834124, Z 627.937652, A 0.000000, B 180.000000, C 0.000000}
LIN {X 1510.824140, Y -477.993898, Z 627.831654, A 0.000000, B 180.000000, C 0.000000}
LIN {X 1510.620120, Y -479.347682, Z 627.821372, A 0.000000, B 180.000000, C 0.000000}
LIN {X 1512.068713, Y -482.984185, Z 628.218683, A 0.000000, B 180.000000, C 0.000000}
LIN {X 1512.606334, Y -483.980049, Z 628.306661, A 0.000000, B 180.000000, C 0.000000}
LIN {X 1513.261191, Y -484.836663, Z 628.374393, A 0.000000, B 180.000000, C 0.000000}
LIN {X 1513.566567, Y -485.464246, Z 628.369422, A 0.000000, B 180.000000, C 0.000000}
LIN {X 1514.778273, Y -493.764714, Z 628.823511, A 0.000000, B 180.000000, C 0.000000}
LIN {X 1515.225319, Y -495.068137, Z 628.915720, A 0.000000, B 180.000000, C 0.000000}
LIN {X 1512.707585, Y -511.400310, Z 628.964947, A 0.000000, B 180.000000, C 0.000000}
LIN {X 1512.427034, Y -512.995991, Z 629.000556, A 0.000000, B 180.000000, C 0.000000}
LIN {X 1511.121896, Y -517.402425, Z 629.358886, A 0.000000, B 180.000000, C 0.000000}
LIN {X 1510.745771, Y -518.435069, Z 629.545246, A 0.000000, B 180.000000, C 0.000000}
LIN {X 1510.296332, Y -519.163427, Z 629.675762, A 0.000000, B 180.000000, C 0.000000}
LIN {X 1510.013001, Y -519.614573, Z 629.774482, A 0.000000, B 180.000000, C 0.000000}
LIN {X 1508.591406, Y -522.242585, Z 629.593010, A 0.000000, B 180.000000, C 0.000000}
LIN {X 1508.037978, Y -523.680392, Z 629.570302, A 0.000000, B 180.000000, C 0.000000}
LIN {X 1507.446327, Y -525.344708, Z 629.627439, A 0.000000, B 180.000000, C 0.000000}
LIN {X 1506.131287, Y -530.342566, Z 630.279519, A 0.000000, B 180.000000, C 0.000000}
LIN {X 1496.896464, Y -549.091686, Z 630.875735, A 0.000000, B 180.000000, C 0.000000}
LIN {X 1494.394907, Y -551.319109, Z 631.096803, A 0.000000, B 180.000000, C 0.000000}
LIN {X 1493.762916, Y -552.060269, Z 631.090738, A 0.000000, B 180.000000, C 0.000000}
LIN {X 1488.020650, Y -561.897299, Z 631.484788, A 0.000000, B 180.000000, C 0.000000}
LIN {X 1487.781188, Y -562.447988, Z 631.644357, A 0.000000, B 180.000000, C 0.000000}
LIN {X 1487.459050, Y -562.948842, Z 631.731694, A 0.000000, B 180.000000, C 0.000000}
LIN {X 1483.246887, Y -568.760570, Z 631.893726, A 0.000000, B 180.000000, C 0.000000}
LIN {X 1482.423025, Y -569.886885, Z 631.923455, A 0.000000, B 180.000000, C 0.000000}
LIN {X 1479.890960, Y -572.370649, Z 631.839412, A 0.000000, B 180.000000, C 0.000000}
LIN {X 1468.805944, Y -577.635214, Z 631.977505, A 0.000000, B 180.000000, C 0.000000}
LIN {X 1460.660873, Y -580.898514, Z 632.232587, A 0.000000, B 180.000000, C 0.000000}
LIN {X 1444.258629, Y -586.195654, Z 632.116765, A 0.000000, B 180.000000, C 0.000000}
LIN {X 1423.302330, Y -589.455719, Z 632.281913, A 0.000000, B 180.000000, C 0.000000}
LIN {X 1421.610909, Y -589.645990, Z 632.317086, A 0.000000, B 180.000000, C 0.000000}
LIN {X 1420.033783, Y -589.826701, Z 632.368096, A 0.000000, B 180.000000, C 0.000000}
LIN {X 1418.480575, Y -590.024003, Z 632.403357, A 0.000000, B 180.000000, C 0.000000}
LIN {X 1400.274275, Y -591.664528, Z 632.405957, A 0.000000, B 180.000000, C 0.000000}
LIN {X 1398.346616, Y -591.880543, Z 632.387350, A 0.000000, B 180.000000, C 0.000000}
LIN {X 1392.431880, Y -591.569363, Z 632.318814, A 0.000000, B 180.000000, C 0.000000}
LIN {X 1387.161996, Y -590.293227, Z 632.509160, A 0.000000, B 180.000000, C 0.000000}
LIN {X 1385.252175, Y -589.913939, Z 632.553274, A 0.000000, B 180.000000, C 0.000000}
LIN {X 1383.327326, Y -589.598386, Z 632.595833, A 0.000000, B 180.000000, C 0.000000}
LIN {X 1365.106089, Y -587.262162, Z 632.833583, A 0.000000, B 180.000000, C 0.000000}
LIN {X 1363.183203, Y -586.833794, Z 632.972425, A 0.000000, B 180.000000, C 0.000000}
LIN {X 1342.868723, Y -583.593340, Z 632.419875, A 0.000000, B 180.000000, C 0.000000}
LIN {X 1340.468853, Y -583.100306, Z 632.330117, A 0.000000, B 180.000000, C 0.000000}
LIN {X 1338.174871, Y -582.700420, Z 632.281407, A 0.000000, B 180.000000, C 0.000000}
LIN {X 1335.690201, Y -582.350652, Z 632.205107, A 0.000000, B 180.000000, C 0.000000}
LIN {X 1333.242721, Y -582.008650, Z 632.130766, A 0.000000, B 180.000000, C 0.000000}
LIN {X 1330.640129, Y -581.797370, Z 632.019625, A 0.000000, B 180.000000, C 0.000000}
LIN {X 1299.687286, Y -580.750217, Z 632.328535, A 0.000000, B 180.000000, C 0.000000}
LIN {X 1288.796953, Y -580.676030, Z 631.795675, A 0.000000, B 180.000000, C 0.000000}
LIN {X 1285.883275, Y -580.757007, Z 631.646099, A 0.000000, B 180.000000, C 0.000000}
LIN {X 1283.018858, Y -580.928893, Z 631.589208, A 0.000000, B 180.000000, C 0.000000}
LIN {X 1280.004681, Y -580.791007, Z 631.468673, A 0.000000, B 180.000000, C 0.000000}
LIN {X 1277.201674, Y -580.756057, Z 631.465556, A 0.000000, B 180.000000, C 0.000000}
LIN {X 1274.377336, Y -580.590203, Z 631.389767, A 0.000000, B 180.000000, C 0.000000}
LIN {X 1254.005987, Y -582.033905, Z 631.510304, A 0.000000, B 180.000000, C 0.000000}
LIN {X 1224.325969, Y -579.830163, Z 631.631649, A 0.000000, B 180.000000, C 0.000000}
LIN {X 1201.173696, Y -577.679526, Z 630.428749, A 0.000000, B 180.000000, C 0.000000}
LIN {X 1188.664553, Y -576.247797, Z 630.402449, A 0.000000, B 180.000000, C 0.000000}
LIN {X 1185.090717, Y -575.987470, Z 630.282493, A 0.000000, B 180.000000, C 0.000000}
LIN {X 1181.762152, Y -575.714274, Z 630.183183, A 0.000000, B 180.000000, C 0.000000}
LIN {X 1178.562978, Y -575.505500, Z 630.130416, A 0.000000, B 180.000000, C 0.000000}
LIN {X 1150.951701, Y -569.985932, Z 630.494735, A 0.000000, B 180.000000, C 0.000000}
LIN {X 1148.765943, Y -569.669365, Z 630.615892, A 0.000000, B 180.000000, C 0.000000}
LIN {X 1133.152469, Y -567.443328, Z 630.216723, A 0.000000, B 180.000000, C 0.000000}
LIN {X 1121.728882, Y -564.887386, Z 630.263597, A 0.000000, B 180.000000, C 0.000000}
LIN {X 1119.728356, Y -564.543187, Z 630.385248, A 0.000000, B 180.000000, C 0.000000}
LIN {X 1105.148490, Y -563.435013, Z 630.748732, A 0.000000, B 180.000000, C 0.000000}
LIN {X 1095.732378, Y -560.823582, Z 630.923083, A 0.000000, B 180.000000, C 0.000000}
LIN {X 1093.468683, Y -560.502204, Z 630.852827, A 0.000000, B 180.000000, C 0.000000}
LIN {X 1083.229469, Y -560.228029, Z 631.384904, A 0.000000, B 180.000000, C 0.000000}
LIN {X 1081.469100, Y -559.917995, Z 631.383290, A 0.000000, B 180.000000, C 0.000000}
LIN {X 1080.239104, Y -559.821029, Z 631.493169, A 0.000000, B 180.000000, C 0.000000}
LIN {X 1078.588448, Y -559.553913, Z 631.411325, A 0.000000, B 180.000000, C 0.000000}
LIN {X 1077.504341, Y -559.449991, Z 631.498838, A 0.000000, B 180.000000, C 0.000000}
LIN {X 1076.127403, Y -559.264708, Z 631.488301, A 0.000000, B 180.000000, C 0.000000}
LIN {X 1074.870799, Y -559.147322, Z 631.523176, A 0.000000, B 180.000000, C 0.000000}
LIN {X 1073.269899, Y -559.039827, Z 631.490232, A 0.000000, B 180.000000, C 0.000000}
LIN {X 1071.651115, Y -558.857013, Z 631.428296, A 0.000000, B 180.000000, C 0.000000}
LIN {X 1070.326246, Y -558.796986, Z 631.533296, A 0.000000, B 180.000000, C 0.000000}
LIN {X 1068.890934, Y -558.614196, Z 631.544672, A 0.000000, B 180.000000, C 0.000000}
LIN {X 1067.393229, Y -558.508965, Z 631.585086, A 0.000000, B 180.000000, C 0.000000}
LIN {X 1065.833472, Y -558.318592, Z 631.583967, A 0.000000, B 180.000000, C 0.000000}
LIN {X 1064.416771, Y -558.208297, Z 631.651453, A 0.000000, B 180.000000, C 0.000000}
LIN {X 1051.821217, Y -558.148444, Z 631.974731, A 0.000000, B 180.000000, C 0.000000}
LIN {X 1042.424317, Y -555.912184, Z 632.160855, A 0.000000, B 180.000000, C 0.000000}
LIN {X 1034.907140, Y -554.550745, Z 632.303285, A 0.000000, B 180.000000, C 0.000000}
LIN {X 1034.091027, Y -554.362779, Z 632.368284, A 0.000000, B 180.000000, C 0.000000}
LIN {X 1033.862727, Y -554.316995, Z 632.366040, A 0.000000, B 180.000000, C 0.000000}
LIN {X 1033.548296, Y -554.271387, Z 632.298109, A 0.000000, B 180.000000, C 0.000000}
LIN {X 1034.426242, Y -554.671223, Z 632.642366, A 0.000000, B 180.000000, C 0.000000}
LIN {X 1034.555963, Y -554.664352, Z 632.668611, A 0.000000, B 180.000000, C 0.000000}
LIN {X 1034.887646, Y -554.580007, Z 632.795252, A 0.000000, B 180.000000, C 0.000000}
LIN {X 1035.014353, Y -554.688526, Z 632.866154, A 0.000000, B 180.000000, C 0.000000}
LIN {X 1034.909384, Y -554.683950, Z 632.839897, A 0.000000, B 180.000000, C 0.000000}
LIN {X 1034.993657, Y -554.715729, Z 632.852916, A 0.000000, B 180.000000, C 0.000000}
LIN {X 1035.083362, Y -554.706796, Z 632.876455, A 0.000000, B 180.000000, C 0.000000}
LIN {X 1035.382260, Y -554.786151, Z 632.967612, A 0.000000, B 180.000000, C 0.000000}
LIN {X 1035.481393, Y -554.794614, Z 632.986053, A 0.000000, B 180.000000, C 0.000000}
LIN {X 1034.410277, Y -554.358272, Z 632.719749, A 0.000000, B 180.000000, C 0.000000}
LIN {X 1034.280503, Y -554.321548, Z 632.687594, A 0.000000, B 180.000000, C 0.000000}
LIN {X 1034.269339, Y -554.229398, Z 632.700779, A 0.000000, B 180.000000, C 0.000000}
LIN {X 1034.257401, Y -554.232725, Z 632.691815, A 0.000000, B 180.000000, C 0.000000}
LIN {X 1034.256731, Y -554.224000, Z 632.684069, A 0.000000, B 180.000000, C 0.000000}
LIN {X 1034.439033, Y -554.175824, Z 632.727655, A 0.000000, B 180.000000, C 0.000000}
LIN {X 1034.325837, Y -554.095451, Z 632.700068, A 0.000000, B 180.000000, C 0.000000}
LIN {X 1034.271650, Y -554.111778, Z 632.669847, A 0.000000, B 180.000000, C 0.000000}
LIN {X 1034.065929, Y -554.129938, Z 632.610508, A 0.000000, B 180.000000, C 0.000000}
LIN {X 1033.574186, Y -554.131490, Z 632.592435, A 0.000000, B 180.000000, C 0.000000}
LIN {X 1033.803455, Y -554.112768, Z 632.605174, A 0.000000, B 180.000000, C 0.000000}
LIN {X 1033.391363, Y -554.084463, Z 632.523558, A 0.000000, B 180.000000, C 0.000000}
LIN {X 1033.321405, Y -554.070670, Z 632.503262, A 0.000000, B 180.000000, C 0.000000}
LIN {X 1034.102538, Y -554.014039, Z 632.668970, A 0.000000, B 180.000000, C 0.000000}
LIN {X 1033.854198, Y -554.197307, Z 632.588747, A 0.000000, B 180.000000, C 0.000000}
LIN {X 1033.854198, Y -554.197307, Z 1.000000, A 0.000000, B 180.000000, C 0.000000}
LIN {X 0.000000, Y 0.000000, Z 0.000000, A 0.000000, B 180.000000, C 0.000000}
END