DEF robCode 
PTP $POS_ACT
&VEL.CP = 1.000000
LIN {X 1021.600000, Y -545.400000, Z 632.700000, A -97.600000, B 9.500000, C -174.300000}
&VEL.CP = 0.083902
LIN {X 1025.000000, Y -525.600000, Z 632.600000, A -101.600000, B 8.500000, C -174.600000}
&VEL.CP = 0.121278
LIN {X 1024.300000, Y -491.800000, Z 631.300000, A -105.100000, B 7.700000, C -174.000000}
&VEL.CP = 0.185885
LIN {X 1027.400000, Y -469.700000, Z 630.700000, A -105.200000, B 8.500000, C -175.100000}
&VEL.CP = 0.223517
LIN {X 1025.600000, Y -458.800000, Z 630.000000, A -105.200000, B 9.000000, C -174.100000}
&VEL.CP = 0.218588
LIN {X 1028.200000, Y -452.800000, Z 630.600000, A -105.900000, B 8.700000, C -175.100000}
&VEL.CP = 0.236035
LIN {X 1028.400000, Y -450.500000, Z 630.600000, A -106.200000, B 8.700000, C -175.400000}
&VEL.CP = 0.229429
LIN {X 1028.400000, Y -448.200000, Z 630.500000, A -106.600000, B 8.700000, C -175.700000}
&VEL.CP = 0.200015
LIN {X 1021.100000, Y -390.900000, Z 627.700000, A -109.000000, B 8.200000, C -175.700000}
&VEL.CP = 0.223352
LIN {X 1010.700000, Y -340.700000, Z 627.800000, A -111.400000, B 7.900000, C -175.000000}
&VEL.CP = 0.222717
LIN {X 1008.600000, Y -312.000000, Z 627.300000, A -114.000000, B 8.100000, C -175.900000}
&VEL.CP = 0.218685
LIN {X 1010.500000, Y -235.700000, Z 624.600000, A -118.800000, B 10.200000, C 179.700000}
&VEL.CP = 0.218252
LIN {X 1000.200000, Y -151.500000, Z 623.300000, A -123.100000, B 11.200000, C 179.400000}
&VEL.CP = 0.204298
LIN {X 1003.600000, Y -98.700000, Z 621.200000, A -128.900000, B 10.200000, C 178.500000}
&VEL.CP = 0.196959
LIN {X 999.400000, Y -55.700000, Z 619.300000, A -132.300000, B 10.100000, C 179.000000}
&VEL.CP = 0.178051
LIN {X 999.300000, Y -24.100000, Z 614.300000, A -134.500000, B 10.900000, C 178.100000}
&VEL.CP = 0.143062
LIN {X 1005.100000, Y 6.500000, Z 610.800000, A -136.500000, B 9.800000, C 177.500000}
&VEL.CP = 0.155107
LIN {X 1005.500000, Y 20.300000, Z 608.700000, A -138.300000, B 10.500000, C 177.100000}
&VEL.CP = 0.134602
LIN {X 1006.600000, Y 49.800000, Z 595.800000, A -140.600000, B 12.200000, C 176.100000}
&VEL.CP = 0.112811
LIN {X 1010.800000, Y 65.800000, Z 592.800000, A -142.400000, B 12.400000, C 175.500000}
&VEL.CP = 0.104965
LIN {X 1019.200000, Y 77.900000, Z 598.400000, A -144.900000, B 12.600000, C 175.300000}
&VEL.CP = 0.095408
LIN {X 1026.100000, Y 81.000000, Z 604.100000, A -146.200000, B 12.700000, C 175.500000}
&VEL.CP = 0.104190
LIN {X 1032.800000, Y 81.300000, Z 607.000000, A -147.000000, B 12.400000, C 175.300000}
&VEL.CP = 0.115934
LIN {X 1043.800000, Y 78.600000, Z 608.900000, A -147.100000, B 11.600000, C 175.700000}
&VEL.CP = 0.159014
LIN {X 1071.500000, Y 66.900000, Z 609.900000, A -148.600000, B 9.300000, C 176.100000}
&VEL.CP = 0.183048
LIN {X 1105.700000, Y 46.800000, Z 616.700000, A -148.500000, B 8.900000, C 176.100000}
&VEL.CP = 0.162748
LIN {X 1138.800000, Y 26.800000, Z 620.600000, A -149.800000, B 8.500000, C 175.800000}
&VEL.CP = 0.167491
LIN {X 1158.300000, Y 13.800000, Z 621.100000, A -151.400000, B 7.900000, C 175.600000}
&VEL.CP = 0.168870
LIN {X 1179.300000, Y 3.200000, Z 621.400000, A -152.600000, B 8.400000, C 174.600000}
&VEL.CP = 0.139490
LIN {X 1216.300000, Y -24.000000, Z 622.600000, A -154.100000, B 7.500000, C 174.900000}
&VEL.CP = 0.076728
LIN {X 1234.100000, Y -42.900000, Z 622.800000, A -153.600000, B 7.800000, C 175.300000}
&VEL.CP = 0.039350
LIN {X 1245.700000, Y -50.400000, Z 623.100000, A -153.700000, B 7.800000, C 175.500000}
&VEL.CP = 0.037500
LIN {X 1269.200000, Y -73.900000, Z 623.600000, A -153.100000, B 7.200000, C 175.700000}
&VEL.CP = 0.171717
LIN {X 1378.500000, Y -130.900000, Z 622.600000, A -150.900000, B 5.900000, C 174.300000}
&VEL.CP = 0.234807
LIN {X 1428.100000, Y -166.100000, Z 621.300000, A -149.700000, B 5.200000, C 175.400000}
&VEL.CP = 0.210798
LIN {X 1466.500000, Y -198.900000, Z 620.700000, A -147.500000, B 3.400000, C 177.100000}
&VEL.CP = 0.214631
LIN {X 1487.500000, Y -220.200000, Z 620.700000, A -145.800000, B 3.000000, C 177.700000}
&VEL.CP = 0.198795
LIN {X 1498.800000, Y -238.900000, Z 620.900000, A -144.400000, B 3.200000, C 178.200000}
&VEL.CP = 0.204328
LIN {X 1508.300000, Y -261.400000, Z 621.400000, A -141.800000, B 3.500000, C 178.400000}
&VEL.CP = 0.180673
LIN {X 1520.100000, Y -323.300000, Z 623.300000, A -137.600000, B 4.400000, C 179.900000}
&VEL.CP = 0.180135
LIN {X 1520.600000, Y -337.600000, Z 624.100000, A -136.100000, B 4.100000, C -179.600000}
&VEL.CP = 0.135420
LIN {X 1514.100000, Y -362.500000, Z 624.000000, A -133.800000, B 5.600000, C -179.100000}
&VEL.CP = 0.155899
LIN {X 1506.800000, Y -414.800000, Z 626.500000, A -130.800000, B 4.900000, C -178.500000}
&VEL.CP = 0.122712
LIN {X 1511.600000, Y -475.700000, Z 628.000000, A -126.600000, B 8.000000, C -180.000000}
&VEL.CP = 0.125272
LIN {X 1510.600000, Y -479.300000, Z 627.800000, A -125.800000, B 8.200000, C -179.500000}
&VEL.CP = 0.109768
LIN {X 1515.200000, Y -495.100000, Z 628.900000, A -125.200000, B 7.900000, C 179.700000}
&VEL.CP = 0.121320
LIN {X 1512.400000, Y -513.000000, Z 629.000000, A -124.800000, B 7.000000, C -179.300000}
&VEL.CP = 0.140908
LIN {X 1496.900000, Y -549.100000, Z 630.900000, A -123.200000, B 5.100000, C -176.900000}
&VEL.CP = 0.120536
LIN {X 1479.900000, Y -572.400000, Z 631.800000, A -120.400000, B 7.400000, C -178.900000}
&VEL.CP = 0.141972
LIN {X 1444.300000, Y -586.200000, Z 632.100000, A -119.200000, B 8.000000, C -178.100000}
&VEL.CP = 0.178454
LIN {X 1398.300000, Y -591.900000, Z 632.400000, A -117.600000, B 9.400000, C -178.200000}
&VEL.CP = 0.221462
LIN {X 1330.600000, Y -581.800000, Z 632.000000, A -117.800000, B 10.000000, C -177.400000}
&VEL.CP = 0.274497
LIN {X 1254.000000, Y -582.000000, Z 631.500000, A -113.900000, B 10.600000, C -176.200000}
&VEL.CP = 0.303831
LIN {X 1178.600000, Y -575.500000, Z 630.100000, A -111.400000, B 11.200000, C -174.500000}
&VEL.CP = 0.240726
LIN {X 1093.500000, Y -560.500000, Z 630.900000, A -107.500000, B 11.400000, C -173.400000}
&VEL.CP = 0.149466
LIN {X 1051.800000, Y -558.100000, Z 632.000000, A -105.200000, B 10.600000, C -172.600000}
&VEL.CP = 0.007444
LIN {X 1033.900000, Y -554.200000, Z 632.600000, A -95.400000, B 10.500000, C -170.900000}
END