DEF robCode 
PTP $POS_ACT
$VEL.CP = 0.100000
LIN {X 1021.600000, Y -545.400000, Z 632.700000, A 0.000000, B 75.000000, C 0.000000}
LIN {X 1025.000000, Y -525.600000, Z 632.600000, A 0.000000, B 75.000000, C 0.000000}
LIN {X 1024.300000, Y -491.800000, Z 631.300000, A 0.000000, B 75.000000, C 0.000000}
LIN {X 1027.400000, Y -469.700000, Z 630.700000, A 0.000000, B 75.000000, C 0.000000}
LIN {X 1025.600000, Y -458.800000, Z 630.000000, A 0.000000, B 75.000000, C 0.000000}
LIN {X 1028.400000, Y -448.200000, Z 630.500000, A 0.000000, B 75.000000, C 0.000000}
LIN {X 1022.900000, Y -400.200000, Z 628.500000, A 0.000000, B 75.000000, C 0.000000}
LIN {X 1010.700000, Y -340.700000, Z 627.800000, A 0.000000, B 75.000000, C 0.000000}
LIN {X 1008.600000, Y -312.000000, Z 627.300000, A 0.000000, B 75.000000, C 0.000000}
LIN {X 1010.300000, Y -231.100000, Z 624.300000, A 0.000000, B 75.000000, C 0.000000}
LIN {X 1000.200000, Y -151.500000, Z 623.300000, A 0.000000, B 75.000000, C 0.000000}
LIN {X 1003.600000, Y -98.700000, Z 621.200000, A 0.000000, B 75.000000, C 0.000000}
LIN {X 999.400000, Y -55.700000, Z 619.300000, A 0.000000, B 75.000000, C 0.000000}
LIN {X 999.300000, Y -24.100000, Z 614.300000, A 0.000000, B 75.000000, C 0.000000}
LIN {X 1005.100000, Y 6.500000, Z 610.800000, A 0.000000, B 75.000000, C 0.000000}
LIN {X 1005.700000, Y 22.600000, Z 608.200000, A 0.000000, B 75.000000, C 0.000000}
LIN {X 1007.900000, Y 54.800000, Z 593.800000, A 0.000000, B 75.000000, C 0.000000}
LIN {X 1011.200000, Y 67.000000, Z 592.900000, A 0.000000, B 75.000000, C 0.000000}
LIN {X 1019.200000, Y 77.900000, Z 598.400000, A 0.000000, B 75.000000, C 0.000000}
LIN {X 1028.800000, Y 81.800000, Z 605.400000, A 0.000000, B 75.000000, C 0.000000}
LIN {X 1043.800000, Y 78.600000, Z 608.900000, A 0.000000, B 75.000000, C 0.000000}
LIN {X 1071.500000, Y 66.900000, Z 609.900000, A 0.000000, B 75.000000, C 0.000000}
LIN {X 1138.800000, Y 26.800000, Z 620.600000, A 0.000000, B 75.000000, C 0.000000}
LIN {X 1179.300000, Y 3.200000, Z 621.400000, A 0.000000, B 75.000000, C 0.000000}
LIN {X 1216.300000, Y -24.000000, Z 622.600000, A 0.000000, B 75.000000, C 0.000000}
LIN {X 1234.100000, Y -42.900000, Z 622.800000, A 0.000000, B 75.000000, C 0.000000}
LIN {X 1245.700000, Y -50.400000, Z 623.100000, A 0.000000, B 75.000000, C 0.000000}
LIN {X 1269.600000, Y -74.200000, Z 623.600000, A 0.000000, B 75.000000, C 0.000000}
LIN {X 1359.700000, Y -120.000000, Z 622.900000, A 0.000000, B 75.000000, C 0.000000}
LIN {X 1418.400000, Y -158.800000, Z 621.600000, A 0.000000, B 75.000000, C 0.000000}
LIN {X 1466.500000, Y -198.900000, Z 620.700000, A 0.000000, B 75.000000, C 0.000000}
LIN {X 1487.500000, Y -220.200000, Z 620.700000, A 0.000000, B 75.000000, C 0.000000}
LIN {X 1498.800000, Y -238.900000, Z 620.900000, A 0.000000, B 75.000000, C 0.000000}
LIN {X 1507.700000, Y -259.700000, Z 621.400000, A 0.000000, B 75.000000, C 0.000000}
LIN {X 1520.100000, Y -323.300000, Z 623.300000, A 0.000000, B 75.000000, C 0.000000}
LIN {X 1520.600000, Y -337.600000, Z 624.100000, A 0.000000, B 75.000000, C 0.000000}
LIN {X 1514.100000, Y -362.500000, Z 624.000000, A 0.000000, B 75.000000, C 0.000000}
LIN {X 1506.800000, Y -414.800000, Z 626.500000, A 0.000000, B 75.000000, C 0.000000}
LIN {X 1510.600000, Y -479.300000, Z 627.800000, A 0.000000, B 75.000000, C 0.000000}
LIN {X 1515.200000, Y -495.100000, Z 628.900000, A 0.000000, B 75.000000, C 0.000000}
LIN {X 1514.100000, Y -504.200000, Z 629.200000, A 0.000000, B 75.000000, C 0.000000}
LIN {X 1510.700000, Y -518.400000, Z 629.500000, A 0.000000, B 75.000000, C 0.000000}
LIN {X 1497.500000, Y -547.900000, Z 630.600000, A 0.000000, B 75.000000, C 0.000000}
LIN {X 1480.800000, Y -571.700000, Z 631.900000, A 0.000000, B 75.000000, C 0.000000}
LIN {X 1446.200000, Y -585.700000, Z 632.100000, A 0.000000, B 75.000000, C 0.000000}
LIN {X 1396.200000, Y -591.900000, Z 632.300000, A 0.000000, B 75.000000, C 0.000000}
LIN {X 1330.600000, Y -581.800000, Z 632.000000, A 0.000000, B 75.000000, C 0.000000}
LIN {X 1254.000000, Y -582.000000, Z 631.500000, A 0.000000, B 75.000000, C 0.000000}
LIN {X 1178.600000, Y -575.500000, Z 630.100000, A 0.000000, B 75.000000, C 0.000000}
LIN {X 1093.500000, Y -560.500000, Z 630.900000, A 0.000000, B 75.000000, C 0.000000}
LIN {X 1051.800000, Y -558.100000, Z 632.000000, A 0.000000, B 75.000000, C 0.000000}
LIN {X 1033.900000, Y -554.200000, Z 632.600000, A 0.000000, B 75.000000, C 0.000000}
END