DEF robCode 
PTP $POS_ACT
$VEL.CP = 1.000000
LIN {X 1021.600000, Y -545.400000, Z 632.700000, A -97.600000, B 9.500000, C -174.300000}
$VEL.CP = 0.083902
LIN {X 1025.000000, Y -525.600000, Z 632.600000, A -101.600000, B 8.500000, C -174.600000}
$VEL.CP = 0.121278
LIN {X 1024.300000, Y -491.800000, Z 631.300000, A -105.100000, B 7.700000, C -174.000000}
$VEL.CP = 0.185885
LIN {X 1027.400000, Y -469.700000, Z 630.700000, A -105.200000, B 8.500000, C -175.100000}
$VEL.CP = 0.223517
LIN {X 1025.600000, Y -458.800000, Z 630.000000, A -105.200000, B 9.000000, C -174.100000}
$VEL.CP = 0.220418
LIN {X 1028.400000, Y -448.200000, Z 630.500000, A -106.600000, B 8.700000, C -175.700000}
$VEL.CP = 0.202126
LIN {X 1022.900000, Y -400.200000, Z 628.500000, A -109.200000, B 8.400000, C -176.000000}
$VEL.CP = 0.217383
LIN {X 1010.700000, Y -340.700000, Z 627.800000, A -111.400000, B 7.900000, C -175.000000}
$VEL.CP = 0.222717
LIN {X 1008.600000, Y -312.000000, Z 627.300000, A -114.000000, B 8.100000, C -175.900000}
$VEL.CP = 0.219308
LIN {X 1010.300000, Y -231.100000, Z 624.300000, A -119.000000, B 10.300000, C 179.600000}
$VEL.CP = 0.217635
LIN {X 1000.200000, Y -151.500000, Z 623.300000, A -123.100000, B 11.200000, C 179.400000}
$VEL.CP = 0.204298
LIN {X 1003.600000, Y -98.700000, Z 621.200000, A -128.900000, B 10.200000, C 178.500000}
$VEL.CP = 0.196959
LIN {X 999.400000, Y -55.700000, Z 619.300000, A -132.300000, B 10.100000, C 179.000000}
$VEL.CP = 0.178051
LIN {X 999.300000, Y -24.100000, Z 614.300000, A -134.500000, B 10.900000, C 178.100000}
$VEL.CP = 0.143062
LIN {X 1005.100000, Y 6.500000, Z 610.800000, A -136.500000, B 9.800000, C 177.500000}
$VEL.CP = 0.148687
LIN {X 1005.700000, Y 22.600000, Z 608.200000, A -138.600000, B 10.500000, C 177.200000}
$VEL.CP = 0.131081
LIN {X 1007.900000, Y 54.800000, Z 593.800000, A -141.200000, B 12.100000, C 175.700000}
$VEL.CP = 0.115802
LIN {X 1011.200000, Y 67.000000, Z 592.900000, A -142.700000, B 12.500000, C 175.400000}
$VEL.CP = 0.104508
LIN {X 1019.200000, Y 77.900000, Z 598.400000, A -144.900000, B 12.600000, C 175.300000}
$VEL.CP = 0.096922
LIN {X 1028.800000, Y 81.800000, Z 605.400000, A -146.700000, B 12.700000, C 175.400000}
$VEL.CP = 0.112829
LIN {X 1043.800000, Y 78.600000, Z 608.900000, A -147.100000, B 11.600000, C 175.700000}
$VEL.CP = 0.159014
LIN {X 1071.500000, Y 66.900000, Z 609.900000, A -148.600000, B 9.300000, C 176.100000}
$VEL.CP = 0.172356
LIN {X 1138.800000, Y 26.800000, Z 620.600000, A -149.800000, B 8.500000, C 175.800000}
$VEL.CP = 0.167882
LIN {X 1179.300000, Y 3.200000, Z 621.400000, A -152.600000, B 8.400000, C 174.600000}
$VEL.CP = 0.139490
LIN {X 1216.300000, Y -24.000000, Z 622.600000, A -154.100000, B 7.500000, C 174.900000}
$VEL.CP = 0.076728
LIN {X 1234.100000, Y -42.900000, Z 622.800000, A -153.600000, B 7.800000, C 175.300000}
$VEL.CP = 0.039350
LIN {X 1245.700000, Y -50.400000, Z 623.100000, A -153.700000, B 7.800000, C 175.500000}
$VEL.CP = 0.037669
LIN {X 1269.600000, Y -74.200000, Z 623.600000, A -153.300000, B 7.200000, C 175.900000}
$VEL.CP = 0.160897
LIN {X 1359.700000, Y -120.000000, Z 622.900000, A -151.500000, B 6.000000, C 174.300000}
$VEL.CP = 0.252110
LIN {X 1418.400000, Y -158.800000, Z 621.600000, A -150.200000, B 5.000000, C 175.100000}
$VEL.CP = 0.209184
LIN {X 1466.500000, Y -198.900000, Z 620.700000, A -147.500000, B 3.400000, C 177.100000}
$VEL.CP = 0.214631
LIN {X 1487.500000, Y -220.200000, Z 620.700000, A -145.800000, B 3.000000, C 177.700000}
$VEL.CP = 0.198795
LIN {X 1498.800000, Y -238.900000, Z 620.900000, A -144.400000, B 3.200000, C 178.200000}
$VEL.CP = 0.206416
LIN {X 1507.700000, Y -259.700000, Z 621.400000, A -142.000000, B 3.500000, C 178.400000}
$VEL.CP = 0.180683
LIN {X 1520.100000, Y -323.300000, Z 623.300000, A -137.600000, B 4.400000, C 179.900000}
$VEL.CP = 0.180135
LIN {X 1520.600000, Y -337.600000, Z 624.100000, A -136.100000, B 4.100000, C -179.600000}
$VEL.CP = 0.135420
LIN {X 1514.100000, Y -362.500000, Z 624.000000, A -133.800000, B 5.600000, C -179.100000}
$VEL.CP = 0.155899
LIN {X 1506.800000, Y -414.8