DEF output/robCode 
PTP $POS_ACT
&VEL.CP 1.000000
LIN {X 1021.624863, Y -545.377307, Z 632.743089, A -1.703523, B 0.165209, C -3.041604}
&VEL.CP 0.161631
LIN {X 1021.767135, Y -543.772954, Z 632.688556, A -1.698700, B 0.175150, C -3.037812}
&VEL.CP 0.141484
LIN {X 1022.241826, Y -542.445225, Z 632.645360, A -1.700646, B 0.182195, C -3.041949}
&VEL.CP 0.135314
LIN {X 1022.283132, Y -541.108649, Z 632.466088, A -1.700830, B 0.189314, C -3.041701}
&VEL.CP 0.104264
LIN {X 1022.284157, Y -540.078524, Z 632.325378, A -1.698542, B 0.194307, C -3.043649}
&VEL.CP 0.071313
LIN {X 1022.297113, Y -539.373489, Z 632.234083, A -1.694520, B 0.198368, C -3.035200}
&VEL.CP 0.055044
LIN {X 1022.599938, Y -538.918335, Z 632.282515, A -1.693233, B 0.196894, C -3.035441}
&VEL.CP 0.045386
LIN {X 1022.907510, Y -538.587873, Z 632.314427, A -1.696990, B 0.193970, C -3.039190}
&VEL.CP 0.038365
LIN {X 1023.023155, Y -538.223351, Z 632.323269, A -1.696254, B 0.190899, C -3.039971}
&VEL.CP 0.072606
LIN {X 1022.837726, Y -533.885710, Z 632.187934, A -1.721604, B 0.170109, C -3.029371}
&VEL.CP 0.102777
LIN {X 1024.427090, Y -530.118381, Z 632.477644, A -1.758708, B 0.165554, C -3.041781}
&VEL.CP 0.076381
LIN {X 1025.000183, Y -525.585725, Z 632.566756, A -1.773585, B 0.148729, C -3.046684}
&VEL.CP 0.123936
LIN {X 1023.946238, Y -522.047174, Z 632.232060, A -1.777648, B 0.147130, C -3.036821}
&VEL.CP 0.117599
LIN {X 1024.222782, Y -520.908083, Z 632.261327, A -1.775459, B 0.146519, C -3.039254}
&VEL.CP 0.115996
LIN {X 1024.477815, Y -519.780337, Z 632.289413, A -1.778432, B 0.146882, C -3.040270}
&VEL.CP 0.104768
LIN {X 1024.625708, Y -518.746163, Z 632.282897, A -1.783437, B 0.146734, C -3.040503}
&VEL.CP 0.109788
LIN {X 1024.920359, Y -517.693042, Z 632.331946, A -1.785566, B 0.146717, C -3.044008}
&VEL.CP 0.103223
LIN {X 1025.509893, Y -510.512803, Z 632.391598, A -1.805255, B 0.140753, C -3.048035}
&VEL.CP 0.103617
LIN {X 1025.545099, Y -509.480336, Z 632.403736, A -1.812501, B 0.139666, C -3.049008}
&VEL.CP 0.117609
LIN {X 1025.601047, Y -508.309005, Z 632.418478, A -1.811900, B 0.137966, C -3.045814}
&VEL.CP 0.125992
LIN {X 1024.446400, Y -503.429065, Z 632.096042, A -1.819842, B 0.134934, C -3.041905}
&VEL.CP 0.129717
LIN {X 1025.168633, Y -499.617332, Z 632.168408, A -1.826744, B 0.129930, C -3.045020}
&VEL.CP 0.164206
LIN {X 1024.706291, Y -494.746709, Z 631.732536, A -1.823009, B 0.132135, C -3.042439}
&VEL.CP 0.155667
LIN {X 1024.521982, Y -493.222685, Z 631.503586, A -1.823731, B 0.132641, C -3.041774}
&VEL.CP 0.149797
LIN {X 1024.349646, Y -491.757614, Z 631.269830, A -1.834240, B 0.134575, C -3.036784}
&VEL.CP 0.185885
LIN {X 1027.441471, Y -469.738361, Z 630.740629, A -1.836746, B 0.148334, C -3.055391}
&VEL.CP 0.242403
LIN {X 1025.860606, Y -462.694053, Z 630.065267, A -1.827110, B 0.156808, C -3.042144}
&VEL.CP 0.187039
LIN {X 1025.893751, Y -460.829632, Z 630.092094, A -1.824629, B 0.157318, C -3.046423}
&VEL.CP 0.208448
LIN {X 1025.553139, Y -458.781905, Z 629.989860, A -1.835705, B 0.156466, C -3.039118}
&VEL.CP 0.218588
LIN {X 1028.161596, Y -452.816692, Z 630.594787, A -1.848991, B 0.151271, C -3.056444}
&VEL.CP 0.236035
LIN {X 1028.410596, Y -450.476241, Z 630.600820, A -1.853559, B 0.152012, C -3.061459}
&VEL.CP 0.229429
LIN {X 1028.424573, Y -448.189339, Z 630.547525, A -1.860447, B 0.152366, C -3.065765}
&VEL.CP 0.239928
LIN {X 1027.861696, Y -445.874417, Z 630.330343, A -1.861960, B 0.152948, C -3.066433}
&VEL.CP 0.246569
LIN {X 1027.027974, Y -443.580933, Z 630.032179, A -1.864955, B 0.152128, C -3.067251}
&VEL.CP 0.230650
LIN {X 1026.253176, Y -441.432101, Z 629.763771, A -1.865144, B 0.153231, C -3.059262}
&VEL.CP 0.194812
LIN {X 1026.744518, Y -431.732777, Z 629.860034, A -1.876165, B 0.143675, C -3.063110}
&VEL.CP 0.187113
LIN {X 1026.838933, Y -429.870226, Z 629.917729, A -1.880949, B 0.143132, C -3.064209}
&VEL.CP 0.182569
LIN {X 1027.152603, Y -428.081908, Z 630.048719, A -1.876632, B 0.138986, C -3.071003}
&VEL.CP 0.206501
LIN {X 1025.317168, Y -422.213827, Z 629.454559, A -1.889500, B 0.134110, C -3.068938}
&VEL.CP 0.210661
LIN {X 1024.548995, Y -420.282851, Z 629.149467, A -1.900460, B 0.138852, C -3.060778}
&VEL.CP 0.196717
LIN {X 1024.064385, Y -410.499504, Z 628.662638, A -1.916126, B 0.136513, C -3.067988}
&VEL.CP 0.213438
LIN {X 1024.050522, Y -408.372182, Z 628.719486, A -1.912452, B 0.138477, C -3.073063}
&VEL.CP 0.205136
LIN {X 1021.876886, Y -396.312338, Z 628.048849, A -1.901685, B 0.147071, C -3.066352}
&VEL.CP 0.185892
LIN {X 1021.644497, Y -394.480308, Z 627.890612, A -1.897872, B 0.147675, C -3.063576}
&VEL.CP 0.174486
LIN {X 1021.378896, Y -392.763945, Z 627.789178, A -1.900729, B 0.145912, C -3.062284}
&VEL.CP 0.190225
LIN {X 1021.119761, Y -390.886125, Z 627.720302, A -1.901581, B 0.143052, C -3.066230}
&VEL.CP 0.214193
LIN {X 1018.076648, Y -378.443378, Z 627.367293, A -1.919591, B 0.143778, C -3.056038}
&VEL.CP 0.225053
LIN {X 1013.008267, Y -347.441406, Z 627.764609, A -1.935444, B 0.135118, C -3.062959}
&VEL.CP 0.237272
LIN {X 1010.661305, Y -340.743166, Z 627.778411, A -1.943935, B 0.138505, C -3.054980}
&VEL.CP 0.207230
LIN {X 1010.690876, Y -332.478884, Z 627.892917, A -1.965726, B 0.130449, C -3.063475}
&VEL.CP 0.239634
LIN {X 1009.574251, Y -325.404402, Z 627.596659, A -1.974827, B 0.130476, C -3.065263}
&VEL.CP 0.216456
LIN {X 1009.926038, Y -318.940199, Z 627.715108, A -1.981759, B 0.131236, C -3.075320}
&VEL.CP 0.238412
LIN {X 1008.559023, Y -311.955018, Z 627.269113, A -1.989782, B 0.140986, C -3.069452}
&VEL.CP 0.210026
LIN {X 1008.988966, Y -301.503031, Z 626.813407, A -2.006505, B 0.141928, C -3.082849}
&VEL.CP 0.215003
LIN {X 1009.189066, Y -299.372733, Z 626.681545, A -2.004973, B 0.145695, C -3.082118}
&VEL.CP 0.208607
LIN {X 1009.563790, Y -297.327361, Z 626.625821, A -2.006663, B 0.144407, C -3.086384}
&VEL.CP 0.228217
LIN {X 1009.790600, Y -295.065448, Z 626.525158, A -2.008844, B 0.144319, C -3.093104}
&VEL.CP 0.241095
LIN {X 1009.491418, Y -287.871502, Z 626.113935, A -2.012350, B 0.154808, C -3.095299}
&VEL.CP 0.229905
LIN {X 1009.773559, Y -285.597207, Z 626.061948, A -2.013135, B 0.157661, C -3.099616}
&VEL.CP 0.215662
LIN {X 1009.957171, Y -283.455329, Z 626.004123, A -2.014847, B 0.159798, C -3.102379}
&VEL.CP 0.208299
LIN {X 1010.061534, Y -281.381994, Z 625.941985, A -2.019820, B 0.160452, C -3.105630}
&VEL.CP 0.203303
LIN {X 1009.534534, Y -275.328064, Z 625.705471, A -2.020121, B 0.158917, C -3.109049}
&VEL.CP 0.210180
LIN {X 1009.412695, Y -273.236826, Z 625.645440, A -2.024183, B 0.161291, C -3.106681}
&VEL.CP 0.227338
LIN {X 1010.108598, Y -264.198425, Z 625.457836, A -2.032169, B 0.167215, C -3.115273}
&VEL.CP 0.209320
LIN {X 1010.373546, Y -262.128471, Z 625.415322, A -2.035572, B 0.167209, C -3.121456}
&VEL.CP 0.208678
LIN {X 1010.439290, Y -260.051790, Z 625.304688, A -2.045870, B 0.166398, C -3.125553}
&VEL.CP 0.226464
LIN {X 1010.092061, Y -253.302255, Z 624.842568, A -2.053875, B 0.170833, C -3.128813}
&VEL.CP 0.230796
LIN {X 1010.164376, Y -251.002980, Z 624.782401, A -2.062279, B 0.171856, C -3.131731}
&VEL.CP 0.224614
LIN {X 1010.157544, Y -248.764268, Z 624.721130, A -2.062335, B 0.173842, C -3.134065}
&VEL.CP 0.227442
LIN {X 1010.054492, Y -246.498946, Z 624.683289, A -2.063437, B 0.175513, C -3.136596}
&VEL.CP 0.216592
LIN {X 1010.478643, Y -235.710016, Z 624.550968, A -2.073953, B 0.177520, C 3.136981}
&VEL.CP 0.235044
LIN {X 1008.671182, Y -226.526309, Z 624.024361, A -2.079446, B 0.183654, C 3.134294}
&VEL.CP 0.221408
LIN {X 1007.834838, Y -217.735438, Z 624.039921, A -2.098561, B 0.189103, C 3.136677}
&VEL.CP 0.222279
LIN {X 1006.111038, Y -191.200463, Z 623.518160, A -2.116962, B 0.191677, C 3.128745}
&VEL.CP 0.221151
LIN {X 1005.980822, Y -189.000255, Z 623.445733, A -2.120671, B 0.194123, C 3.130087}
&VEL.CP 0.217942
LIN {X 1005.964051, Y -186.827438, Z 623.419680, A -2.124964, B 0.195224, C 3.129757}
&VEL.CP 0.221196
LIN {X 1005.731479, Y -184.634568, Z 623.382973, A -2.127106, B 0.192565, C 3.124227}
&VEL.CP 0.219274
LIN {X 1004.244428, Y -178.246911, Z 623.288416, A -2.132798, B 0.193720, C 3.125328}
&VEL.CP 0.224706
LIN {X 1003.797277, Y -176.051285, Z 623.283704, A -2.124788, B 0.198052, C 3.131986}
&VEL.CP 0.211996
LIN {X 1002.502410, Y -165.562587, Z 623.169410, A -2.137922, B 0.195956, C 3.126727}
&VEL.CP 0.205637
LIN {X 1002.612033, Y -159.417546, Z 623.422559, A -2.147170, B 0.193926, C 3.120816}
&VEL.CP 0.208371
LIN {X 1000.164037, Y -151.477514, Z 623.250995, A -2.148306, B 0.196165, C 3.130843}
&VEL.CP 0.220179
LIN {X 1001.863970, Y -142.862048, Z 623.247904, A -2.168480, B 0.186461, C 3.115460}
&VEL.CP 0.227625
LIN {X 1002.021854, Y -140.600814, Z 623.129899, A -2.174654, B 0.188698, C 3.113700}
&VEL.CP 0.204612
LIN {X 1001.524513, Y -134.508775, Z 622.812016, A -2.184405, B 0.190714, C 3.113520}
&VEL.CP 0.189188
LIN {X 1001.379099, Y -132.632393, Z 622.684233, A -2.184926, B 0.189732, C 3.117016}
&VEL.CP 0.199973
LIN {X 1002.467287, Y -124.743670, Z 622.242025, A -2.202523, B 0.184524, C 3.111893}
&VEL.CP 0.215486
LIN {X 1002.815756, Y -114.016425, Z 621.772965, A -2.222665, B 0.187552, C 3.110052}
&VEL.CP 0.201569
LIN {X 1002.764536, Y -112.009113, Z 621.687371, A -2.231593, B 0.188983, C 3.112498}
&VEL.CP 0.206525
LIN {X 1002.967319, Y -109.960729, Z 621.630054, A -2.231293, B 0.185428, C 3.107964}
&VEL.CP 0.198706
LIN {X 1002.938636, Y -107.983075, Z 621.514365, A -2.238840, B 0.185914, C 3.110048}
&VEL.CP 0.196077
LIN {X 1003.025592, Y -106.031903, Z 621.423519, A -2.238857, B 0.186115, C 3.110850}
&VEL.CP 0.179083
LIN {X 1003.321027, Y -104.271082, Z 621.400522, A -2.244643, B 0.183637, C 3.109858}
&VEL.CP 0.184222
LIN {X 1003.309350, Y -102.435472, Z 621.334714, A -2.249722, B 0.182186, C 3.110461}
&VEL.CP 0.180734
LIN {X 1003.595296, Y -100.656080, Z 621.339120, A -2.246656, B 0.176895, C 3.110761}
&VEL.CP 0.199974
LIN {X 1003.612988, Y -98.665044, Z 621.234060, A -2.249213, B 0.178412, C 3.115424}
&VEL.CP 0.205169
LIN {X 1001.882036, Y -70.096076, Z 620.194236, A -2.294256, B 0.177328, C 3.114149}
&VEL.CP 0.200667
LIN {X 1001.687097, Y -68.106800, Z 620.100808, A -2.298517, B 0.177066, C 3.115382}
&VEL.CP 0.198769
LIN {X 1001.671458, Y -66.126375, Z 620.026869, A -2.299862, B 0.179768, C 3.117047}
&VEL.CP 0.176613
LIN {X 1001.639294, Y -64.366025, Z 619.993767, A -2.295793, B 0.177090, C 3.115491}
&VEL.CP 0.182290
LIN {X 1000.235181, Y -59.110892, Z 619.612292, A -2.302036, B 0.175304, C 3.120124}
&VEL.CP 0.176651
LIN {X 999.784101, Y -57.416886, Z 619.441486, A -2.302689, B 0.175522, C 3.121808}
&VEL.CP 0.176052
LIN {X 999.425441, Y -55.708821, Z 619.252293, A -2.308557, B 0.176412, C 3.123952}
&VEL.CP 0.170841
LIN {X 999.820062, Y -54.054608, Z 619.155169, A -2.311743, B 0.175558, C 3.124707}
&VEL.CP 0.170727
LIN {X 999.923167, Y -52.366045, Z 618.965817, A -2.310956, B 0.175928, C 3.124433}
&VEL.CP 0.164182
LIN {X 1000.194854, Y -50.764017, Z 618.765760, A -2.310829, B 0.167052, C 3.113345}
&VEL.CP 0.169860
LIN {X 999.069845, Y -34.183915, Z 615.496492, A -2.339491, B 0.173713, C 3.117621}
&VEL.CP 0.202997
LIN {X 999.316587, Y -24.133395, Z 614.335881, A -2.347662, B 0.190339, C 3.108466}
&VEL.CP 0.144993
LIN {X 1000.348149, Y -15.539798, Z 613.761126, A -2.352223, B 0.191675, C 3.102448}
&VEL.CP 0.122876
LIN {X 1000.477493, Y -14.330360, Z 613.614343, A -2.353652, B 0.190987, C 3.105268}
&VEL.CP 0.122597
LIN {X 1000.752990, Y -13.146331, Z 613.485156, A -2.357284, B 0.187741, C 3.105562}
&VEL.CP 0.136775
LIN {X 1000.955772, Y -11.808619, Z 613.314272, A -2.363716, B 0.186109, C 3.103297}
&VEL.CP 0.153684
LIN {X 1001.001585, Y -10.292116, Z 613.099357, A -2.367567, B 0.183412, C 3.102907}
&VEL.CP 0.161653
LIN {X 1003.144613, Y -0.960393, Z 611.736854, A -2.379756, B 0.187107, C 3.095133}
&VEL.CP 0.140853
LIN {X 1003.705389, Y 0.317657, Z 611.580411, A -2.380687, B 0.187618, C 3.095877}
&VEL.CP 0.128587
LIN {X 1004.250034, Y 1.466934, Z 611.417214, A -2.378597, B 0.183805, C 3.095947}
&VEL.CP 0.113292
LIN {X 1004.403448, Y 2.573076, Z 611.247170, A -2.372206, B 0.179941, C 3.095339}
&VEL.CP 0.110201
LIN {X 1004.646138, Y 3.635128, Z 611.104138, A -2.375424, B 0.177845, C 3.097532}
&VEL.CP 0.132327
LIN {X 1004.863162, Y 4.931085, Z 610.985020, A -2.386179, B 0.176762, C 3.100111}
&VEL.CP 0.161038
LIN {X 1005.095227, Y 6.511963, Z 610.824888, A -2.383167, B 0.171704, C 3.098289}
&VEL.CP 0.155107
LIN {X 1005.542147, Y 20.264073, Z 608.721602, A -2.413931, B 0.183589, C 3.090269}
&VEL.CP 0.145457
LIN {X 1005.518473, Y 32.643729, Z 604.582680, A -2.425418, B 0.199162, C 3.086681}
&VEL.CP 0.130507
LIN {X 1006.525433, Y 35.996395, Z 602.855001, A -2.429598, B 0.198942, C 3.077197}
&VEL.CP 0.114617
LIN {X 1006.832437, Y 41.861021, Z 599.314988, A -2.433330, B 0.200741, C 3.080267}
&VEL.CP 0.144409
LIN {X 1006.611378, Y 49.756697, Z 595.815049, A -2.453545, B 0.213421, C 3.073445}
&VEL.CP 0.112585
LIN {X 1007.629596, Y 53.812717, Z 594.179237, A -2.459107, B 0.211848, C 3.066190}
&VEL.CP 0.103367
LIN {X 1007.855294, Y 54.761806, Z 593.846800, A -2.465113, B 0.211176, C 3.066407}
&VEL.CP 0.105112
LIN {X 1008.282073, Y 55.678535, Z 593.571396, A -2.464421, B 0.211446, C 3.066286}
&VEL.CP 0.096605
LIN {X 1008.601934, Y 56.559775, Z 593.350261, A -2.459648, B 0.210153, C 3.066865}
&VEL.CP 0.086676
LIN {X 1008.676118, Y 57.397938, Z 593.153124, A -2.462660, B 0.208392, C 3.066618}
&VEL.CP 0.124534
LIN {X 1010.798299, Y 65.819184, Z 592.790380, A -2.485892, B 0.216003, C 3.062412}
&VEL.CP 0.110432
LIN {X 1012.435825, Y 68.642469, Z 593.300742, A -2.498028, B 0.218507, C 3.058069}
&VEL.CP 0.084332
LIN {X 1014.114131, Y 70.218348, Z 594.331819, A -2.501707, B 0.213369, C 3.061387}
&VEL.CP 0.109641
LIN {X 1015.000097, Y 70.627308, Z 594.824662, A -2.503133, B 0.208395, C 3.061135}
&VEL.CP 0.100720
LIN {X 1015.624589, Y 71.276329, Z 595.268843, A -2.502951, B 0.206382, C 3.063519}
&VEL.CP 0.116116
LIN {X 1019.166107, Y 77.864861, Z 598.388567, A -2.529660, B 0.219457, C 3.059980}
&VEL.CP 0.095408
LIN {X 1026.070891, Y 81.032792, Z 604.114751, A -2.552525, B 0.221009, C 3.063297}
&VEL.CP 0.104370
LIN {X 1028.793513, Y 81.797550, Z 605.437195, A -2.560503, B 0.221381, C 3.061049}
&VEL.CP 0.108687
LIN {X 1029.792403, Y 81.824000, Z 605.857141, A -2.559695, B 0.219532, C 3.059467}
&VEL.CP 0.107147
LIN {X 1032.750290, Y 81.306293, Z 606.977366, A -2.565116, B 0.216833, C 3.058958}
&VEL.CP 0.114959
LIN {X 1036.990903, Y 79.977098, Z 608.105990, A -2.565829, B 0.211095, C 3.064819}
&VEL.CP 0.100920
LIN {X 1037.943056, Y 79.712741, Z 608.295822, A -2.567027, B 0.207572, C 3.066560}
&VEL.CP 0.112684
LIN {X 1039.046539, Y 79.553605, Z 608.434917, A -2.562756, B 0.207597, C 3.066121}
&VEL.CP 0.098502
LIN {X 1040.000262, Y 79.341055, Z 608.534025, A -2.570770, B 0.207710, C 3.067259}
&VEL.CP 0.130699
LIN {X 1043.814620, Y 78.564519, Z 608.899585, A -2.567858, B 0.202785, C 3.066017}
&VEL.CP 0.159014
LIN {X 1071.549156, Y 66.850174, Z 609.937321, A -2.593592, B 0.162050, C 3.072656}
&VEL.CP 0.183175
LIN {X 1098.113191, Y 51.699135, Z 615.310920, A -2.601821, B 0.155525, C 3.072522}
&VEL.CP 0.182907
LIN {X 1105.657632, Y 46.765322, Z 616.686923, A -2.591885, B 0.155704, C 3.074190}
&VEL.CP 0.168548
LIN {X 1117.200015, Y 39.989239, Z 617.958743, A -2.595151, B 0.155937, C 3.069848}
&VEL.CP 0.189565
LIN {X 1118.767726, Y 38.944983, Z 618.114589, A -2.597877, B 0.153978, C 3.069099}
&VEL.CP 0.178073
LIN {X 1124.306276, Y 34.538764, Z 618.709289, A -2.603155, B 0.147331, C 3.073307}
&VEL.CP 0.191618
LIN {X 1125.857557, Y 33.438907, Z 618.893936, A -2.605464, B 0.143774, C 3.074448}
&VEL.CP 0.184230
LIN {X 1127.407414, Y 32.470366, Z 619.078535, A -2.607342, B 0.141228, C 3.074677}
&VEL.CP 0.141449
LIN {X 1137.411287, Y 27.435818, Z 620.450515, A -2.615689, B 0.146767, C 3.068925}
&VEL.CP 0.159482
LIN {X 1138.840455, Y 26.759748, Z 620.620781, A -2.613699, B 0.148346, C 3.068166}
&VEL.CP 0.167099
LIN {X 1155.563815, Y 15.806811, Z 620.956655, A -2.635491, B 0.136493, C 3.062733}
&VEL.CP 0.165817
LIN {X 1156.855934, Y 14.776463, Z 621.003979, A -2.638660, B 0.137078, C 3.063327}
&VEL.CP 0.174552
LIN {X 1158.304812, Y 13.812747, Z 621.050909, A -2.642206, B 0.137648, C 3.064672}
&VEL.CP 0.168870
LIN {X 1179.343492, Y 3.185182, Z 621.404055, A -2.663066, B 0.146279, C 3.047540}
&VEL.CP 0.181261
LIN {X 1186.757374, Y -1.965248, Z 621.811260, A -2.668679, B 0.140636, C 3.047778}
&VEL.CP 0.166192
LIN {X 1188.156093, Y -2.850203, Z 621.896873, A -2.669541, B 0.139425, C 3.047988}
&VEL.CP 0.146887
LIN {X 1189.362903, Y -3.679134, Z 621.934659, A -2.671441, B 0.140464, C 3.048581}
&VEL.CP 0.150344
LIN {X 1190.648518, Y -4.448949, Z 621.975675, A -2.672211, B 0.139259, C 3.047432}
&VEL.CP 0.142705
LIN {X 1195.204369, Y -7.860706, Z 621.989248, A -2.681195, B 0.142902, C 3.048595}
&VEL.CP 0.164642
LIN {X 1196.559022, Y -8.784566, Z 622.068282, A -2.680439, B 0.141493, C 3.048842}
&VEL.CP 0.130369
LIN {X 1206.643035, Y -16.980023, Z 622.416155, A -2.696235, B 0.137015, C 3.054438}
&VEL.CP 0.153825
LIN {X 1207.974072, Y -17.740317, Z 622.467604, A -2.693357, B 0.136307, C 3.054114}
&VEL.CP 0.146636
LIN {X 1209.062393, Y -18.715905, Z 622.515222, A -2.693038, B 0.135537, C 3.054592}
&VEL.CP 0.144917
LIN {X 1210.085754, Y -19.734736, Z 622.565424, A -2.687150, B 0.132369, C 3.053058}
&VEL.CP 0.143902
LIN {X 1211.133062, Y -20.714174, Z 622.615534, A -2.691364, B 0.130505, C 3.056275}
&VEL.CP 0.102508
LIN {X 1216.336731, Y -23.958935, Z 622.561966, A -2.690365, B 0.130527, C 3.052683}
&VEL.CP 0.102057
LIN {X 1225.615671, Y -33.387782, Z 622.498000, A -2.687923, B 0.128928, C 3.056743}
&VEL.CP 0.091379
LIN {X 1228.141879, Y -37.170676, Z 622.744931, A -2.686880, B 0.125434, C 3.062787}
&VEL.CP 0.052090
LIN {X 1234.142281, Y -42.919651, Z 622.810253, A -2.680074, B 0.136057, C 3.060002}
&VEL.CP 0.039350
LIN {X 1245.661444, Y -50.390904, Z 623.070025, A -2.682259, B 0.136669, C 3.063812}
&VEL.CP 0.032261
LIN {X 1251.461036, Y -55.959538, Z 623.239229, A -2.678331, B 0.134494, C 3.067479}
&VEL.CP 0.038132
LIN {X 1254.239975, Y -59.578053, Z 623.266975, A -2.676978, B 0.128678, C 3.072271}
&VEL.CP 0.045055
LIN {X 1254.897771, Y -61.249651, Z 623.221783, A -2.683891, B 0.126978, C 3.074439}
&VEL.CP 0.037628
LIN {X 1257.477380, Y -62.768371, Z 623.441529, A -2.680741, B 0.130773, C 3.069717}
&VEL.CP 0.044587
LIN {X 1259.115576, Y -64.873291, Z 623.411214, A -2.675655, B 0.133032, C 3.067721}
&VEL.CP 0.033791
LIN {X 1261.591007, Y -66.624306, Z 623.447217, A -2.675622, B 0.135591, C 3.064284}
&VEL.CP 0.070819
LIN {X 1263.970997, Y -68.138206, Z 623.596300, A -2.668213, B 0.129101, C 3.063773}
&VEL.CP 0.036005
LIN {X 1264.221302, Y -69.185705, Z 623.591671, A -2.672561, B 0.127305, C 3.067264}
&VEL.CP 0.017740
LIN {X 1265.345636, Y -69.693611, Z 623.486368, A -2.673868, B 0.138616, C 3.066911}
&VEL.CP 0.024393
LIN {X 1265.574586, Y -69.775676, Z 623.487560, A -2.674220, B 0.140783, C 3.067113}
&VEL.CP 0.029496
LIN {X 1265.834165, Y -69.913915, Z 623.486295, A -2.669768, B 0.139028, C 3.063432}
&VEL.CP 0.057780
LIN {X 1268.667303, Y -72.782816, Z 623.567694, A -2.670709, B 0.131678, C 3.065050}
&VEL.CP 0.065911
LIN {X 1268.921968, Y -73.388565, Z 623.551463, A -2.669700, B 0.129051, C 3.066358}
&VEL.CP 0.060851
LIN {X 1269.165917, Y -73.944085, Z 623.551491, A -2.671387, B 0.125938, C 3.067202}
&VEL.CP 0.050957
LIN {X 1274.662409, Y -76.580208, Z 623.672397, A -2.671381, B 0.126715, C 3.065361}
&VEL.CP 0.079040
LIN {X 1275.368452, Y -76.929922, Z 623.655709, A -2.670900, B 0.123022, C 3.063169}
&VEL.CP 0.068090
LIN {X 1278.025062, Y -79.042584, Z 623.700547, A -2.675375, B 0.123945, C 3.065751}
&VEL.CP 0.110156
LIN {X 1285.304720, Y -81.515715, Z 623.782838, A -2.670617, B 0.124158, C 3.057366}
&VEL.CP 0.154219
LIN {X 1295.878173, Y -87.802941, Z 623.850717, A -2.668811, B 0.111915, C 3.059725}
&VEL.CP 0.190402
LIN {X 1297.582075, Y -88.638937, Z 623.807202, A -2.668296, B 0.110610, C 3.059965}
&VEL.CP 0.170517
LIN {X 1299.044685, Y -89.504319, Z 623.757322, A -2.671798, B 0.108547, C 3.061205}
&VEL.CP 0.211192
LIN {X 1327.597664, Y -103.009618, Z 623.519034, A -2.655875, B 0.108695, C 3.052679}
&VEL.CP 0.266854
LIN {X 1348.565354, Y -114.576622, Z 623.308538, A -2.643512, B 0.098095, C 3.048392}
&VEL.CP 0.249045
LIN {X 1359.737520, Y -119.979760, Z 622.934351, A -2.644021, B 0.104068, C 3.042565}
&VEL.CP 0.266732
LIN {X 1366.562963, Y -124.108891, Z 622.765784, A -2.640089, B 0.104712, C 3.043164}
&VEL.CP 0.274631
LIN {X 1368.906493, Y -125.524351, Z 622.716260, A -2.636265, B 0.107177, C 3.045006}
&VEL.CP 0.278969
LIN {X 1371.300070, Y -126.941050, Z 622.692296, A -2.637667, B 0.103951, C 3.043839}
&VEL.CP 0.271347
LIN {X 1373.696357, Y -128.196941, Z 622.672323, A -2.633601, B 0.103294, C 3.043804}
&VEL.CP 0.271170
LIN {X 1376.055237, Y -129.517647, Z 622.630686, A -2.634358, B 0.103505, C 3.043678}
&VEL.CP 0.280944
LIN {X 1378.509607, Y -130.868305, Z 622.590043, A -2.632878, B 0.102713, C 3.041258}
&VEL.CP 0.270616
LIN {X 1391.499573, Y -140.517233, Z 622.067387, A -2.628641, B 0.095880, C 3.049834}
&VEL.CP 0.310881
LIN {X 1394.013834, Y -142.329964, Z 622.093436, A -2.626727, B 0.093489, C 3.051600}
&VEL.CP 0.294601
LIN {X 1396.344460, Y -144.117695, Z 622.112728, A -2.627770, B 0.092130, C 3.055033}
&VEL.CP 0.290008
LIN {X 1398.737065, Y -145.741156, Z 622.145865, A -2.629501, B 0.081787, C 3.052005}
&VEL.CP 0.220872
LIN {X 1400.479078, Y -147.086926, Z 622.081165, A -2.633678, B 0.081512, C 3.054171}
&VEL.CP 0.215068
LIN {X 1418.446692, Y -158.783816, Z 621.614360, A -2.620688, B 0.087681, C 3.055619}
&VEL.CP 0.203001
LIN {X 1428.109947, Y -166.135278, Z 621.343254, A -2.613569, B 0.091071, C 3.061205}
&VEL.CP 0.208827
LIN {X 1457.943740, Y -192.117628, Z 621.181074, A -2.589943, B 0.056356, C 3.089697}
&VEL.CP 0.218581
LIN {X 1466.459665, Y -198.900325, Z 620.713170, A -2.574404, B 0.059185, C 3.090612}
&VEL.CP 0.242677
LIN {X 1476.352045, Y -209.525933, Z 620.862043, A -2.561927, B 0.039297, C 3.103736}
&VEL.CP 0.193772
LIN {X 1487.503279, Y -220.227204, Z 620.655337, A -2.544530, B 0.052614, C 3.101804}
&VEL.CP 0.198795
LIN {X 1498.817732, Y -238.863976, Z 620.928510, A -2.520826, B 0.056428, C 3.110300}
&VEL.CP 0.219093
LIN {X 1505.328508, Y -252.696237, Z 621.281828, A -2.490207, B 0.053692, C 3.112062}
&VEL.CP 0.184961
LIN {X 1507.732047, Y -259.669508, Z 621.417238, A -2.478510, B 0.060632, C 3.113335}
&VEL.CP 0.182421
LIN {X 1508.271900, Y -261.405916, Z 621.375713, A -2.474749, B 0.060855, C 3.114448}
&VEL.CP 0.212545
LIN {X 1512.276532, Y -280.046898, Z 621.898126, A -2.447451, B 0.058016, C 3.139579}
&VEL.CP 0.175400
LIN {X 1512.580716, Y -281.769038, Z 621.912996, A -2.447586, B 0.057549, C 3.140480}
&VEL.CP 0.184675
LIN {X 1512.933595, Y -283.576590, Z 621.903102, A -2.447727, B 0.057692, C 3.141228}
&VEL.CP 0.199896
LIN {X 1513.318591, Y -285.532129, Z 621.913511, A -2.448610, B 0.059473, C -3.140665}
&VEL.CP 0.233081
LIN {X 1513.825880, Y -287.799834, Z 621.945782, A -2.448280, B 0.056360, C -3.139992}
&VEL.CP 0.263588
LIN {X 1515.068919, Y -295.580108, Z 622.241239, A -2.447102, B 0.042949, C -3.131176}
&VEL.CP 0.236054
LIN {X 1515.249415, Y -297.921963, Z 622.391854, A -2.443607, B 0.037730, C -3.128147}
&VEL.CP 0.193932
LIN {X 1515.406505, Y -299.844982, Z 622.525033, A -2.442203, B 0.035802, C -3.122340}
&VEL.CP 0.130961
LIN {X 1516.779374, Y -303.507966, Z 622.732778, A -2.433405, B 0.042124, C -3.125364}
&VEL.CP 0.165231
LIN {X 1518.015879, Y -309.980760, Z 622.799881, A -2.424800, B 0.055349, C -3.131530}
&VEL.CP 0.223818
LIN {X 1518.355736, Y -312.180476, Z 622.960758, A -2.423660, B 0.051585, C -3.131630}
&VEL.CP 0.214484
LIN {X 1518.575641, Y -314.299662, Z 623.145498, A -2.421376, B 0.048897, C -3.129928}
&VEL.CP 0.195462
LIN {X 1518.831734, Y -316.221875, Z 623.339686, A -2.417783, B 0.048107, C -3.126290}
&VEL.CP 0.113986
LIN {X 1518.756200, Y -319.629452, Z 623.435992, A -2.415425, B 0.053865, C -3.127499}
&VEL.CP 0.098233
LIN {X 1520.100063, Y -323.307889, Z 623.324429, A -2.400975, B 0.076275, C 3.139340}
&VEL.CP 0.187490
LIN {X 1520.586736, Y -334.503080, Z 623.821903, A -2.377027, B 0.077029, C -3.136203}
&VEL.CP 0.166040
LIN {X 1520.624064, Y -336.151573, Z 623.969839, A -2.375024, B 0.074886, C -3.135367}
&VEL.CP 0.150499
LIN {X 1520.599756, Y -337.649809, Z 624.050072, A -2.375273, B 0.071873, C -3.134661}
&VEL.CP 0.125274
LIN {X 1517.970841, Y -347.285847, Z 623.738930, A -2.355663, B 0.093238, C -3.130355}
&VEL.CP 0.152357
LIN {X 1516.450001, Y -356.261497, Z 624.193861, A -2.350678, B 0.083119, C -3.126320}
&VEL.CP 0.094586
LIN {X 1516.229156, Y -357.171570, Z 624.305282, A -2.347848, B 0.084363, C -3.128417}
&VEL.CP 0.143423
LIN {X 1514.064426, Y -362.458634, Z 624.021513, A -2.336074, B 0.096984, C -3.125204}
&VEL.CP 0.196439
LIN {X 1512.881582, Y -374.131961, Z 624.690697, A -2.332609, B 0.067297, C -3.112100}
&VEL.CP 0.085149
LIN {X 1512.770270, Y -374.944771, Z 624.909216, A -2.330500, B 0.067499, C -3.113859}
&VEL.CP 0.065341
LIN {X 1512.439928, Y -375.495572, Z 625.019248, A -2.328881, B 0.071270, C -3.116195}
&VEL.CP 0.063068
LIN {X 1512.243784, Y -376.092498, Z 625.044357, A -2.329695, B 0.076603, C -3.120235}
&VEL.CP 0.098597
LIN {X 1511.831774, Y -376.982185, Z 624.972563, A -2.329470, B 0.084250, C -3.122021}
&VEL.CP 0.138069
LIN {X 1511.606097, Y -378.337890, Z 624.893347, A -2.325691, B 0.086266, C -3.126661}
&VEL.CP 0.182803
LIN {X 1511.139141, Y -380.096357, Z 624.784385, A -2.322665, B 0.089157, C -3.123369}
&VEL.CP 0.205530
LIN {X 1509.794016, Y -390.246094, Z 625.197461, A -2.313938, B 0.071327, C -3.111972}
&VEL.CP 0.145564
LIN {X 1509.518591, Y -391.657130, Z 625.396513, A -2.314220, B 0.068926, C -3.110404}
&VEL.CP 0.100313
LIN {X 1509.334299, Y -392.619586, Z 625.596737, A -2.312932, B 0.070013, C -3.111793}
&VEL.CP 0.077126
LIN {X 1509.184418, Y -393.360857, Z 625.736083, A -2.313403, B 0.073548, C -3.113593}
&VEL.CP 0.070960
LIN {X 1509.071808, Y -394.054996, Z 625.813996, A -2.311552, B 0.078566, C -3.118605}
&VEL.CP 0.173643
LIN {X 1506.938606, Y -412.972433, Z 626.371585, A -2.288970, B 0.075799, C -3.110583}
&VEL.CP 0.092943
LIN {X 1506.828107, Y -413.888596, Z 626.456571, A -2.285583, B 0.079564, C -3.112031}
&VEL.CP 0.086521
LIN {X 1506.794969, Y -414.750328, Z 626.479594, A -2.282867, B 0.084786, C -3.114845}
&VEL.CP 0.152443
LIN {X 1506.714002, Y -429.946101, Z 626.838218, A -2.254516, B 0.095059, C -3.113799}
&VEL.CP 0.080548
LIN {X 1507.158402, Y -430.598523, Z 626.986028, A -2.257799, B 0.095814, C -3.120184}
&VEL.CP 0.032774
LIN {X 1507.276220, Y -430.903253, Z 626.992427, A -2.249738, B 0.104979, C -3.118671}
&VEL.CP 0.052201
LIN {X 1507.626229, Y -431.288360, Z 626.983015, A -2.251494, B 0.111385, C -3.127753}
&VEL.CP 0.105310
LIN {X 1508.038592, Y -434.394755, Z 626.660025, A -2.246448, B 0.131247, C -3.137166}
&VEL.CP 0.204637
LIN {X 1507.571483, Y -440.497905, Z 626.623246, A -2.235675, B 0.127699, C -3.128631}
&VEL.CP 0.209461
LIN {X 1507.741707, Y -442.571970, Z 626.799313, A -2.238350, B 0.120566, C -3.126671}
&VEL.CP 0.169190
LIN {X 1507.995265, Y -444.226666, Z 627.010461, A -2.231780, B 0.115166, C -3.123787}
&VEL.CP 0.128318
LIN {X 1508.316151, Y -445.446456, Z 627.225075, A -2.230198, B 0.112146, C -3.123579}
&VEL.CP 0.088839
LIN {X 1508.557138, Y -446.286584, Z 627.369055, A -2.226674, B 0.110688, C -3.125953}
&VEL.CP 0.057341
LIN {X 1508.741642, Y -446.821807, Z 627.448876, A -2.226372, B 0.113085, C -3.128740}
&VEL.CP 0.103160
LIN {X 1509.538981, Y -451.902129, Z 627.372698, A -2.227136, B 0.133408, C -3.135880}
&VEL.CP 0.187881
LIN {X 1509.621824, Y -453.773581, Z 627.364552, A -2.232493, B 0.128330, C -3.137622}
&VEL.CP 0.146674
LIN {X 1509.177184, Y -459.601062, Z 627.621097, A -2.235780, B 0.116238, C -3.130444}
&VEL.CP 0.086263
LIN {X 1509.030538, Y -460.444031, Z 627.708671, A -2.225440, B 0.118534, C -3.128349}
&VEL.CP 0.082892
LIN {X 1509.015712, Y -461.268276, Z 627.767778, A -2.224247, B 0.121445, C -3.127316}
&VEL.CP 0.102707
LIN {X 1510.592555, Y -469.307753, Z 627.764907, A -2.211559, B 0.134962, C -3.136681}
&VEL.CP 0.132886
LIN {X 1511.004532, Y -470.561635, Z 627.881441, A -2.214015, B 0.131162, C 3.141033}
&VEL.CP 0.104160
LIN {X 1511.554064, Y -475.723801, Z 628.011820, A -2.208752, B 0.139831, C -3.141088}
&VEL.CP 0.113831
LIN {X 1511.330802, Y -476.834124, Z 627.937652, A -2.214070, B 0.137578, C 3.135917}
&VEL.CP 0.127378
LIN {X 1510.824140, Y -477.993898, Z 627.831654, A -2.204573, B 0.142272, C -3.139617}
&VEL.CP 0.137313
LIN {X 1510.620120, Y -479.347682, Z 627.821372, A -2.196246, B 0.143985, C -3.132833}
&VEL.CP 0.131527
LIN {X 1512.068713, Y -482.984185, Z 628.218683, A -2.190097, B 0.136802, C -3.134802}
&VEL.CP 0.113847
LIN {X 1512.606334, Y -483.980049, Z 628.306661, A -2.188031, B 0.137195, C -3.134161}
&VEL.CP 0.108355
LIN {X 1513.261191, Y -484.836663, Z 628.374393, A -2.190948, B 0.131650, C 3.140790}
&VEL.CP 0.070000
LIN {X 1513.566567, Y -485.464246, Z 628.369422, A -2.189618, B 0.133437, C 3.138320}
&VEL.CP 0.105312
LIN {X 1514.778273, Y -493.764714, Z 628.823511, A -2.182464, B 0.140446, C 3.135197}
&VEL.CP 0.138510
LIN {X 1515.225319, Y -495.068137, Z 628.915720, A -2.184670, B 0.138421, C 3.136118}
&VEL.CP 0.118380
LIN {X 1512.707585, Y -511.400310, Z 628.964947, A -2.176805, B 0.127174, C -3.129504}
&VEL.CP 0.162531
LIN {X 1512.427034, Y -512.995991, Z 629.000556, A -2.178384, B 0.122936, C -3.128856}
&VEL.CP 0.154095
LIN {X 1511.121896, Y -517.402425, Z 629.358886, A -2.176864, B 0.113413, C -3.120291}
&VEL.CP 0.111797
LIN {X 1510.745771, Y -518.435069, Z 629.545246, A -2.175616, B 0.111001, C -3.120534}
&VEL.CP 0.086830
LIN {X 1510.296332, Y -519.163427, Z 629.675762, A -2.171899, B 0.111852, C -3.118853}
&VEL.CP 0.054340
LIN {X 1510.013001, Y -519.614573, Z 629.774482, A -2.171750, B 0.113436, C -3.119617}
&VEL.CP 0.075051
LIN {X 1508.591406, Y -522.242585, Z 629.593010, A -2.167076, B 0.128318, C -3.128752}
&VEL.CP 0.154533
LIN {X 1508.037978, Y -523.680392, Z 629.570302, A -2.168229, B 0.128177, C -3.129167}
&VEL.CP 0.177247
LIN {X 1507.446327, Y -525.344708, Z 629.627439, A -2.166709, B 0.125439, C -3.128866}
&VEL.CP 0.174142
LIN {X 1506.131287, Y -530.342566, Z 630.279519, A -2.162019, B 0.110546, C -3.122513}
&VEL.CP 0.161303
LIN {X 1496.896464, Y -549.091686, Z 630.875735, A -2.151080, B 0.088179, C -3.087285}
&VEL.CP 0.112215
LIN {X 1494.394907, Y -551.319109, Z 631.096803, A -2.142667, B 0.100014, C -3.085556}
&VEL.CP 0.097691
LIN {X 1493.762916, Y -552.060269, Z 631.090738, A -2.139896, B 0.105485, C -3.086485}
&VEL.CP 0.142880
LIN {X 1488.020650, Y -561.897299, Z 631.484788, A -2.123696, B 0.107062, C -3.096422}
&VEL.CP 0.062317
LIN {X 1487.781188, Y -562.447988, Z 631.644357, A -2.119218, B 0.109457, C -3.101594}
&VEL.CP 0.060364
LIN {X 1487.459050, Y -562.948842, Z 631.731694, A -2.116244, B 0.113299, C -3.108824}
&VEL.CP 0.120005
LIN {X 1483.246887, Y -568.760570, Z 631.893726, A -2.110741, B 0.128709, C -3.123447}
&VEL.CP 0.139961
LIN {X 1482.423025, Y -569.886885, Z 631.923455, A -2.108998, B 0.127239, C -3.122862}
&VEL.CP 0.118610
LIN {X 1479.890960, Y -572.370649, Z 631.839412, A -2.101157, B 0.129068, C -3.122000}
&VEL.CP 0.123082
LIN {X 1468.805944, Y -577.635214, Z 631.977505, A -2.096793, B 0.146977, C -3.117453}
&VEL.CP 0.146728
LIN {X 1460.660873, Y -580.898514, Z 632.232587, A -2.088787, B 0.143308, C -3.110360}
&VEL.CP 0.157153
LIN {X 1444.258629, Y -586.195654, Z 632.116765, A -2.080291, B 0.138795, C -3.108297}
&VEL.CP 0.177255
LIN {X 1423.302330, Y -589.455719, Z 632.281913, A -2.059466, B 0.154347, C -3.110390}
&VEL.CP 0.170746
LIN {X 1421.610909, Y -589.645990, Z 632.317086, A -2.063108, B 0.157270, C -3.109342}
&VEL.CP 0.159293
LIN {X 1420.033783, Y -589.826701, Z 632.368096, A -2.058602, B 0.159170, C -3.109111}
&VEL.CP 0.157069
LIN {X 1418.480575, Y -590.024003, Z 632.403357, A -2.057049, B 0.156815, C -3.112996}
&VEL.CP 0.183331
LIN {X 1400.274275, Y -591.664528, Z 632.405957, A -2.054930, B 0.167756, C -3.108037}
&VEL.CP 0.194551
LIN {X 1398.346616, Y -591.880543, Z 632.387350, A -2.053023, B 0.164649, C -3.110592}
&VEL.CP 0.198024
LIN {X 1392.431880, Y -591.569363, Z 632.318814, A -2.052356, B 0.167337, C -3.105689}
&VEL.CP 0.181371
LIN {X 1387.161996, Y -590.293227, Z 632.509160, A -2.053487, B 0.173505, C -3.112513}
&VEL.CP 0.195334
LIN {X 1385.252175, Y -589.913939, Z 632.553274, A -2.055618, B 0.176873, C -3.112072}
&VEL.CP 0.195674
LIN {X 1383.327326, Y -589.598386, Z 632.595833, A -2.053445, B 0.179198, C -3.112179}
&VEL.CP 0.230318
LIN {X 1365.106089, Y -587.262162, Z 632.833583, A -2.047345, B 0.181198, C -3.096404}
&VEL.CP 0.198032
LIN {X 1363.183203, Y -586.833794, Z 632.972425, A -2.051674, B 0.178972, C -3.099177}
&VEL.CP 0.229319
LIN {X 1342.868723, Y -583.593340, Z 632.419875, A -2.055151, B 0.168724, C -3.098486}
&VEL.CP 0.245884
LIN {X 1340.468853, Y -583.100306, Z 632.330117, A -2.054956, B 0.170860, C -3.097571}
&VEL.CP 0.233593
LIN {X 1338.174871, Y -582.700420, Z 632.281407, A -2.055772, B 0.171697, C -3.098288}
&VEL.CP 0.251770
LIN {X 1335.690201, Y -582.350652, Z 632.205107, A -2.057375, B 0.173599, C -3.095945}
&VEL.CP 0.247916
LIN {X 1333.242721, Y -582.008650, Z 632.130766, A -2.056192, B 0.173581, C -3.097778}
&VEL.CP 0.262120
LIN {X 1330.640129, Y -581.797370, Z 632.019625, A -2.056754, B 0.174996, C -3.095631}
&VEL.CP 0.258851
LIN {X 1299.687286, Y -580.750217, Z 632.328535, A -2.033051, B 0.180226, C -3.084793}
&VEL.CP 0.273391
LIN {X 1288.796953, Y -580.676030, Z 631.795675, A -2.020966, B 0.183423, C -3.086289}
&VEL.CP 0.292721
LIN {X 1285.883275, Y -580.757007, Z 631.646099, A -2.014368, B 0.185250, C -3.084058}
&VEL.CP 0.287857
LIN {X 1283.018858, Y -580.928893, Z 631.589208, A -2.013666, B 0.183242, C -3.083073}
&VEL.CP 0.302802
LIN {X 1280.004681, Y -580.791007, Z 631.468673, A -2.012055, B 0.186082, C -3.082142}
&VEL.CP 0.281146
LIN {X 1277.201674, Y -580.756057, Z 631.465556, A -2.009265, B 0.186639, C -3.081489}
&VEL.CP 0.283853
LIN {X 1274.377336, Y -580.590203, Z 631.389767, A -2.003144, B 0.191313, C -3.077493}
&VEL.CP 0.292603
LIN {X 1254.005987, Y -582.033905, Z 631.510304, A -1.988499, B 0.184971, C -3.074411}
&VEL.CP 0.298488
LIN {X 1224.325969, Y -579.830163, Z 631.631649, A -1.959041, B 0.198901, C -3.063748}
&VEL.CP 0.291879
LIN {X 1201.173696, Y -577.679526, Z 630.428749, A -1.945367, B 0.199243, C -3.065106}
&VEL.CP 0.315696
LIN {X 1188.664553, Y -576.247797, Z 630.402449, A -1.944999, B 0.198226, C -3.060418}
&VEL.CP 0.359585
LIN {X 1185.090717, Y -575.987470, Z 630.282493, A -1.943610, B 0.197019, C -3.057265}
&VEL.CP 0.335039
LIN {X 1181.762152, Y -575.714274, Z 630.183183, A -1.944097, B 0.201861, C -3.042222}
&VEL.CP 0.321583
LIN {X 1178.562978, Y -575.505500, Z 630.130416, A -1.943442, B 0.196203, C -3.045028}
&VEL.CP 0.282421
LIN {X 1150.951701, Y -569.985932, Z 630.494735, A -1.922766, B 0.195797, C -3.040174}
&VEL.CP 0.221838
LIN {X 1148.765943, Y -569.669365, Z 630.615892, A -1.928802, B 0.195391, C -3.045529}
&VEL.CP 0.263704
LIN {X 1133.152469, Y -567.443328, Z 630.216723, A -1.920856, B 0.190865, C -3.042921}
&VEL.CP 0.234801
LIN {X 1121.728882, Y -564.887386, Z 630.263597, A -1.902585, B 0.195868, C -3.031153}
&VEL.CP 0.203954
LIN {X 1119.728356, Y -564.543187, Z 630.385248, A -1.899237, B 0.195946, C -3.035974}
&VEL.CP 0.209557
LIN {X 1105.148490, Y -563.435013, Z 630.748732, A -1.889727, B 0.187377, C -3.026782}
&VEL.CP 0.196028
LIN {X 1095.732378, Y -560.823582, Z 630.923083, A -1.881457, B 0.194945, C -3.028707}
&VEL.CP 0.229420
LIN {X 1093.468683, Y -560.502204, Z 630.852827, A -1.875501, B 0.198235, C -3.026165}
&VEL.CP 0.171442
LIN {X 1083.229469, Y -560.228029, Z 631.384904, A -1.868390, B 0.192276, C -3.021408}
&VEL.CP 0.179272
LIN {X 1081.469100, Y -559.917995, Z 631.383290, A -1.860393, B 0.193257, C -3.017739}
&VEL.CP 0.124233
LIN {X 1080.239104, Y -559.821029, Z 631.493169, A -1.861132, B 0.191554, C -3.020592}
&VEL.CP 0.167872
LIN {X 1078.588448, Y -559.553913, Z 631.411325, A -1.857022, B 0.193519, C -3.017691}
&VEL.CP 0.109580
LIN {X 1077.504341, Y -559.449991, Z 631.498838, A -1.861642, B 0.191809, C -3.025717}
&VEL.CP 0.139347
LIN {X 1076.127403, Y -559.264708, Z 631.488301, A -1.856827, B 0.194195, C -3.018355}
&VEL.CP 0.126627
LIN {X 1074.870799, Y -559.147322, Z 631.523176, A -1.856952, B 0.192813, C -3.026926}
&VEL.CP 0.160956
LIN {X 1073.269899, Y -559.039827, Z 631.490232, A -1.857340, B 0.193161, C -3.028028}
&VEL.CP 0.163504
LIN {X 1071.651115, Y -558.857013, Z 631.428296, A -1.853581, B 0.194633, C -3.022513}
&VEL.CP 0.133429
LIN {X 1070.326246, Y -558.796986, Z 631.533296, A -1.850484, B 0.192991, C -3.022409}
&VEL.CP 0.145092
LIN {X 1068.890934, Y -558.614196, Z 631.544672, A -1.854142, B 0.195600, C -3.022645}
&VEL.CP 0.150635
LIN {X 1067.393229, Y -558.508965, Z 631.585086, A -1.852671, B 0.193518, C -3.024106}
&VEL.CP 0.157595
LIN {X 1065.833472, Y -558.318592, Z 631.583967, A -1.853009, B 0.195619, C -3.021269}
&VEL.CP 0.142677
LIN {X 1064.416771, Y -558.208297, Z 631.651453, A -1.847722, B 0.194512, C -3.018093}
&VEL.CP 0.140407
LIN {X 1051.821217, Y -558.148444, Z 631.974731, A -1.835558, B 0.185748, C -3.013069}
&VEL.CP 0.088083
LIN {X 1042.424317, Y -555.912184, Z 632.160855, A -1.816864, B 0.194112, C -3.021510}
&VEL.CP 0.051087
LIN {X 1034.907140, Y -554.550745, Z 632.303285, A -1.803149, B 0.185954, C -3.022470}
&VEL.CP 0.028080
LIN {X 1034.091027, Y -554.362779, Z 632.368284, A -1.808529, B 0.186326, C -3.018809}
&VEL.CP 0.023354
LIN {X 1033.862727, Y -554.316995, Z 632.366040, A -1.811639, B 0.184864, C -3.024841}
&VEL.CP 0.032586
LIN {X 1033.548296, Y -554.271387, Z 632.298109, A -1.802643, B 0.185938, C -3.020679}
&VEL.CP 0.010273
LIN {X 1034.426242, Y -554.671223, Z 632.642366, A -1.807799, B 0.182351, C -3.042647}
&VEL.CP 0.013292
LIN {X 1034.555963, Y -554.664352, Z 632.668611, A -1.808458, B 0.182393, C -3.044749}
&VEL.CP 0.001743
LIN {X 1034.887646, Y -554.580007, Z 632.795252, A -1.807807, B 0.170821, C -3.018013}
&VEL.CP 0.018180
LIN {X 1035.014353, Y -554.688526, Z 632.866154, A -1.809564, B 0.169316, C -3.019497}
&VEL.CP 0.010862
LIN {X 1034.909384, Y -554.683950, Z 632.839897, A -1.810058, B 0.167265, C -3.021079}
&VEL.CP 0.009127
LIN {X 1034.993657, Y -554.715729, Z 632.852916, A -1.811814, B 0.166355, C -3.020575}
&VEL.CP 0.009343
LIN {X 1035.083362, Y -554.706796, Z 632.876455, A -1.808058, B 0.167659, C -3.015749}
&VEL.CP 0.032336
LIN {X 1035.382260, Y -554.786151, Z 632.967612, A -1.808389, B 0.165597, C -3.021724}
&VEL.CP 0.010149
LIN {X 1035.481393, Y -554.794614, Z 632.986053, A -1.804068, B 0.165620, C -3.020234}
&VEL.CP 0.007439
LIN {X 1034.410277, Y -554.358272, Z 632.719749, A -1.758884, B 0.172857, C -2.995349}
&VEL.CP 0.013903
LIN {X 1034.280503, Y -554.321548, Z 632.687594, A -1.763551, B 0.172816, C -2.991676}
&VEL.CP 0.009403
LIN {X 1034.269339, Y -554.229398, Z 632.700779, A -1.753477, B 0.172880, C -2.990508}
&VEL.CP 0.001534
LIN {X 1034.257401, Y -554.232725, Z 632.691815, A -1.752478, B 0.172355, C -2.987224}
&VEL.CP 0.001172
LIN {X 1034.256731, Y -554.224000, Z 632.684069, A -1.753490, B 0.171727, C -2.985211}
&VEL.CP 0.019410
LIN {X 1034.439033, Y -554.175824, Z 632.727655, A -1.752153, B 0.170824, C -2.984873}
&VEL.CP 0.014196
LIN {X 1034.325837, Y -554.095451, Z 632.700068, A -1.756853, B 0.171282, C -2.982308}
&VEL.CP 0.006435
LIN {X 1034.271650, Y -554.111778, Z 632.669847, A -1.752747, B 0.168707, C -2.982768}
&VEL.CP 0.021547
LIN {X 1034.065929, Y -554.129938, Z 632.610508, A -1.755139, B 0.168682, C -2.977016}
&VEL.CP 0.000759
LIN {X 1033.574186, Y -554.131490, Z 632.592435, A -1.666809, B 0.220650, C -3.025529}
&VEL.CP 0.003301
LIN {X 1033.803455, Y -554.112768, Z 632.605174, A -1.660092, B 0.214593, C -3.021309}
&VEL.CP 0.002223
LIN {X 1033.391363, Y -554.084463, Z 632.523558, A -1.659935, B 0.212515, C -3.011649}
&VEL.CP 0.007434
LIN {X 1033.321405, Y -554.070670, Z 632.503262, A -1.660215, B 0.211273, C -3.008713}
&VEL.CP 0.020072
LIN {X 1034.102538, Y -554.014039, Z 632.668970, A -1.654041, B 0.208964, C -3.012103}
&VEL.CP 0.000542
LIN {X 1033.854198, Y -554.197307, Z 632.588747, A -1.664679, B 0.183026, C -2.982234}
&VEL.CP 2.000000
LIN {X 0.000000, Y 0.000000, Z 0.000000, A -1.664679, B 0.183026, C -2.982234}
END