DEF path_01 
PTP $POS_ACT
$VEL.CP = 1.000000
LIN {X 1024.008969, Y -524.089183, Z 632.354464, A 0.000000, B 100.000000, C 0.000000}
LIN {X 1000.734317, Y -48.863745, Z 617.524521, A 0.000000, B 100.000000, C 0.000000}
LIN {X 1009.021971, Y 51.113201, Z 597.808322, A 0.000000, B 100.000000, C 0.000000}
LIN {X 1023.382135, Y 75.174608, Z 600.563829, A 0.000000, B 100.000000, C 0.000000}
LIN {X 1059.927580, Y 70.696761, Z 609.864432, A 0.000000, B 100.000000, C 0.000000}
LIN {X 1145.598748, Y 22.418335, Z 620.165766, A 0.000000, B 100.000000, C 0.000000}
LIN {X 1269.208232, Y -72.741504, Z 623.586909, A 0.000000, B 100.000000, C 0.000000}
LIN {X 1404.186668, Y -149.917109, Z 621.969032, A 0.000000, B 100.000000, C 0.000000}
LIN {X 1473.327597, Y -208.823286, Z 620.941851, A 0.000000, B 100.000000, C 0.000000}
LIN {X 1507.349068, Y -267.659791, Z 621.612926, A 0.000000, B 100.000000, C 0.000000}
LIN {X 1511.947209, Y -502.981185, Z 628.968288, A 0.000000, B 100.000000, C 0.000000}
LIN {X 1469.930201, Y -574.200836, Z 631.866580, A 0.000000, B 100.000000, C 0.000000}
LIN {X 1389.924904, Y -588.559325, Z 632.471107, A 0.000000, B 100.000000, C 0.000000}
LIN {X 1033.764165, Y -554.163057, Z 632.572506, A 0.000000, B 100.000000, C 0.000000}
END