DEF path_02 
PTP $POS_ACT
$VEL.CP = 1.000000
LIN {X 1275.053086, Y 181.785615, Z 855.218671, A -104.029614, B 15.835601, C 179.142418}
$VEL.CP = 0.019715
LIN {X 1289.507842, Y 190.459359, Z 855.952248, A -104.202527, B 15.149108, C -179.840402}
$VEL.CP = 0.034508
LIN {X 1274.252729, Y 207.992008, Z 858.116423, A -102.693479, B 14.524978, C 178.821275}
$VEL.CP = 0.041120
LIN {X 1290.671795, Y 226.810400, Z 858.319184, A -102.390225, B 14.612939, C 179.054808}
$VEL.CP = 0.036917
LIN {X 1277.649458, Y 291.521262, Z 863.947883, A -95.776157, B 15.700989, C 179.330539}
$VEL.CP = 0.055297
LIN {X 1293.536130, Y 319.208254, Z 866.922470, A -95.529690, B 15.626240, C 179.806536}
$VEL.CP = 0.046547
LIN {X 1280.457448, Y 340.450697, Z 873.109215, A -92.069591, B 15.717586, C 179.304806}
$VEL.CP = 0.054066
LIN {X 1298.168278, Y 364.713068, Z 878.937756, A -92.138651, B 15.849953, C 178.476949}
$VEL.CP = 0.043503
LIN {X 1287.684853, Y 384.906510, Z 886.638992, A -89.606823, B 15.613812, C 177.903989}
$VEL.CP = 0.038450
LIN {X 1303.258125, Y 441.108742, Z 900.637308, A -86.050193, B 16.201367, C 179.162385}
$VEL.CP = 0.043807
LIN {X 1292.578451, Y 594.238070, Z 876.345002, A -80.453481, B 14.580850, C 178.289623}
$VEL.CP = 0.045129
LIN {X 1302.465875, Y 709.014919, Z 879.556129, A -79.729679, B 13.406482, C 174.514235}
$VEL.CP = 0.049277
LIN {X 1293.144965, Y 784.111477, Z 862.618014, A -76.626526, B 14.325067, C 178.997161}
$VEL.CP = 0.053958
LIN {X 1311.026938, Y 867.176219, Z 851.782674, A -80.504366, B 12.924560, C 170.978877}
$VEL.CP = 0.054458
LIN {X 1299.640440, Y 901.368981, Z 849.986645, A -81.405480, B 13.134984, C 168.408173}
$VEL.CP = 0.018833
LIN {X 1321.282143, Y 918.723523, Z 847.924513, A -84.304274, B 14.756643, C 168.994624}
END