DEF path_01 
PTP $POS_ACT
$VEL.CP = 1.000000
LIN {X 1024.008969, Y -524.089183, Z 632.354464, A -97.604653, B 9.465803, C -174.271099}
$VEL.CP = 0.197277
LIN {X 1000.734317, Y -48.863745, Z 617.524521, A -129.527065, B 10.220800, C 178.486499}
$VEL.CP = 0.144417
LIN {X 1009.021971, Y 51.113201, Z 597.808322, A -138.468247, B 10.597417, C 177.162608}
$VEL.CP = 0.091090
LIN {X 1023.382135, Y 75.174608, Z 600.563829, A -141.703216, B 11.944732, C 175.800437}
$VEL.CP = 0.112016
LIN {X 1059.927580, Y 70.696761, Z 609.864432, A -146.659748, B 12.578263, C 175.294534}
$VEL.CP = 0.168074
LIN {X 1145.598748, Y 22.418335, Z 620.165766, A -148.396324, B 8.917724, C 176.078112}
$VEL.CP = 0.073815
LIN {X 1269.208232, Y -72.741504, Z 623.586909, A -153.316245, B 7.773538, C 175.591989}
$VEL.CP = 0.177210
LIN {X 1404.186668, Y -149.917109, Z 621.969032, A -151.540205, B 5.768309, C 174.478794}
$VEL.CP = 0.216909
LIN {X 1473.327597, Y -208.823286, Z 620.941851, A -149.153464, B 3.855362, C 175.922206}
$VEL.CP = 0.200486
LIN {X 1507.349068, Y -267.659791, Z 621.612926, A -145.416012, B 2.921116, C 178.137579}
$VEL.CP = 0.140575
LIN {X 1511.947209, Y -502.981185, Z 628.968288, A -126.856844, B 7.882618, C 179.674802}
$VEL.CP = 0.123853
LIN {X 1469.930201, Y -574.200836, Z 631.866580, A -122.410404, B 6.417242, C -177.337879}
$VEL.CP = 0.163044
LIN {X 1389.924904, Y -588.559325, Z 632.471107, A -118.546211, B 8.749859, C -177.872835}
$VEL.CP = 0.097252
LIN {X 1033.764165, Y -554.163057, Z 632.572506, A -95.188829, B 11.297712, C -171.712281}
END