DEF path_01 
PTP $POS_ACT
$VEL.CP = 1.000000
LIN {X 1023.988047, Y -524.618413, Z 632.360294, A -97.604653, B 9.465803, C -174.271099}
$VEL.CP = 0.154133
LIN {X 1025.466241, Y -438.607200, Z 629.729701, A -104.718206, B 7.749312, C -174.230774}
$VEL.CP = 0.212440
LIN {X 1010.749726, Y -314.531325, Z 626.976383, A -110.382441, B 8.082740, C -175.036628}
$VEL.CP = 0.209164
LIN {X 1000.688574, Y -47.937431, Z 617.456467, A -129.632196, B 10.300098, C 178.472538}
$VEL.CP = 0.143991
LIN {X 1009.088124, Y 51.692733, Z 597.596525, A -138.541904, B 10.600208, C 177.206477}
$VEL.CP = 0.091445
LIN {X 1022.940539, Y 75.113363, Z 600.391715, A -141.703216, B 11.944732, C 175.800437}
$VEL.CP = 0.111047
LIN {X 1059.177772, Y 71.064240, Z 609.759080, A -146.659748, B 12.578263, C 175.294534}
$VEL.CP = 0.168042
LIN {X 1146.295825, Y 21.994031, Z 620.220645, A -148.563417, B 8.880029, C 176.022685}
$VEL.CP = 0.154788
LIN {X 1203.417374, Y -14.674899, Z 622.260772, A -152.357779, B 8.362473, C 174.691475}
$VEL.CP = 0.052525
LIN {X 1268.943924, Y -72.590171, Z 623.582482, A -153.316245, B 7.773538, C 175.591989}
$VEL.CP = 0.176329
LIN {X 1403.321571, Y -149.259070, Z 621.988722, A -151.540205, B 5.768309, C 174.478794}
$VEL.CP = 0.216453
LIN {X 1475.402532, Y -211.074957, Z 620.926149, A -148.989075, B 3.849506, C 176.043054}
$VEL.CP = 0.200311
LIN {X 1508.318783, Y -270.467427, Z 621.688334, A -145.159169, B 2.694181, C 178.406599}
$VEL.CP = 0.175735
LIN {X 1517.938210, Y -325.682898, Z 623.363275, A -140.276103, B 3.229180, C -179.908308}
$VEL.CP = 0.147820
LIN {X 1508.023321, Y -417.961558, Z 626.306555, A -132.894854, B 4.823237, C -178.710473}
$VEL.CP = 0.119239
LIN {X 1511.665371, Y -505.823210, Z 629.092714, A -125.683568, B 8.127767, C -179.427943}
$VEL.CP = 0.127443
LIN {X 1494.572091, Y -549.586314, Z 630.881045, A -124.289157, B 7.019664, C -179.088716}
$VEL.CP = 0.127005
LIN {X 1469.469132, Y -574.609210, Z 631.884645, A -122.223817, B 6.362878, C -177.449161}
$VEL.CP = 0.148383
LIN {X 1432.897460, Y -586.531093, Z 632.249089, A -120.137386, B 8.421137, C -178.616897}
$VEL.CP = 0.182996
LIN {X 1390.985984, Y -588.679331, Z 632.476056, A -118.546211, B 8.749859, C -177.872835}
$VEL.CP = 0.258635
LIN {X 1197.982226, Y -576.209675, Z 630.751519, A -114.338712, B 10.839413, C -176.464369}
$VEL.CP = 0.056333
LIN {X 1033.765115, Y -554.166038, Z 632.572498, A -95.175298, B 11.210849, C -171.646507}
END