DEF path_03 
PTP $POS_ACT
$VEL.CP = 1.000000
LIN {X 1485.739936, Y 60.701466, Z 1247.677126, A -55.094614, B -71.481933, C -135.548866}
$VEL.CP = 0.346355
LIN {X 1499.812639, Y 43.638185, Z 1274.200156, A -55.194202, B -70.020183, C -135.281497}
$VEL.CP = 0.411276
LIN {X 1510.329352, Y 6.382189, Z 1287.730711, A -54.499350, B -69.873867, C -135.750541}
$VEL.CP = 0.576093
LIN {X 1510.515642, Y -101.749997, Z 1272.933214, A -45.410608, B -72.212827, C -142.827946}
$VEL.CP = 0.777052
LIN {X 1490.331930, Y -223.966256, Z 1208.855598, A -37.235931, B -72.144481, C -147.735955}
$VEL.CP = 0.535127
LIN {X 1472.947765, Y -478.757532, Z 1043.691796, A -93.392639, B -82.430956, C -81.440696}
$VEL.CP = 0.555274
LIN {X 1436.336070, Y -317.913762, Z 1091.101868, A -110.918987, B -84.411082, C -60.413041}
$VEL.CP = 0.755101
LIN {X 1430.776301, Y -255.229212, Z 1132.435691, A -74.620226, B -82.769804, C -100.671439}
$VEL.CP = 0.668736
LIN {X 1432.049326, Y -212.561911, Z 1183.661216, A -67.407854, B -78.935248, C -111.759644}
$VEL.CP = 0.540685
LIN {X 1438.601839, Y -197.380165, Z 1229.277338, A -61.846352, B -74.678378, C -120.521361}
$VEL.CP = 0.395117
LIN {X 1449.525966, Y -207.742139, Z 1265.683656, A -58.151568, B -69.268715, C -126.478880}
$VEL.CP = 0.376013
LIN {X 1460.321704, Y -238.131972, Z 1275.608558, A -55.769010, B -65.067725, C -130.123972}
$VEL.CP = 0.518338
LIN {X 1471.436506, Y -284.962357, Z 1256.778868, A -45.397006, B -62.260509, C -140.124230}
$VEL.CP = 0.692559
LIN {X 1483.202597, Y -363.643007, Z 1161.274036, A -25.905760, B -60.025015, C -157.151156}
$VEL.CP = 0.614413
LIN {X 1482.321871, Y -387.053716, Z 1098.087752, A -15.993381, B -63.389386, C -166.003357}
$VEL.CP = 0.288592
LIN {X 1475.884483, Y -381.789570, Z 1064.573456, A -7.107342, B -69.449909, C -176.550790}
$VEL.CP = 0.360807
LIN {X 1468.238505, Y -337.567868, Z 1106.124028, A 5.334705, B -76.030716, C 169.358968}
$VEL.CP = 0.641190
LIN {X 1474.310822, Y -306.822232, Z 1196.758177, A -8.116888, B -76.019523, C -178.424323}
$VEL.CP = 0.472981
LIN {X 1487.399039, Y -315.036598, Z 1256.088204, A -22.980424, B -70.155673, C -164.752729}
$VEL.CP = 0.364419
LIN {X 1499.308012, Y -356.653750, Z 1261.327612, A -25.770758, B -62.506568, C -163.464032}
$VEL.CP = 0.704841
LIN {X 1506.371179, Y -432.059548, Z 1210.225946, A -21.507233, B -54.880821, C -169.999644}
$VEL.CP = 0.951797
LIN {X 1508.903093, Y -583.559611, Z 1066.581662, A -9.965663, B -58.556865, C 179.461328}
$VEL.CP = 0.685022
LIN {X 1502.722472, Y -648.682546, Z 996.832440, A -3.738355, B -69.101350, C 177.945770}
$VEL.CP = 0.192550
LIN {X 1486.621476, Y -654.983679, Z 976.252737, A 12.348520, B -80.091390, C 169.813282}
$VEL.CP = 0.511978
LIN {X 1451.119557, Y -563.982278, Z 1041.401039, A -98.863211, B -87.391196, C -70.241148}
$VEL.CP = 0.524517
LIN {X 1464.141642, Y -515.278951, Z 1120.903397, A -42.364282, B -76.568659, C -135.118175}
$VEL.CP = 0.459552
LIN {X 1496.625430, Y -513.569559, Z 1165.235827, A -42.934067, B -68.451501, C -141.962168}
$VEL.CP = 0.460639
LIN {X 1580.726333, Y -541.385872, Z 1252.024415, A -6.976329, B -65.293154, C 177.031503}
$VEL.CP = 0.352195
LIN {X 1602.126162, Y -565.488309, Z 1279.171599, A -3.323463, B -65.567278, C 176.952731}
$VEL.CP = 0.329593
LIN {X 1609.657536, Y -597.461624, Z 1280.177323, A -6.949259, B -65.280641, C -176.688729}
$VEL.CP = 0.538525
LIN {X 1609.839565, Y -659.042833, Z 1237.061099, A -5.081701, B -61.647776, C -177.852651}
$VEL.CP = 0.802417
LIN {X 1607.453846, Y -805.397222, Z 1067.467633, A 8.817073, B -64.336243, C 163.520157}
$VEL.CP = 0.428543
LIN {X 1620.852345, Y -908.231475, Z 985.053661, A 64.264813, B -84.167620, C 114.274440}
$VEL.CP = 0.421035
LIN {X 1555.992030, Y -798.542007, Z 1011.479550, A 165.307380, B -78.595046, C 25.459956}
$VEL.CP = 0.706735
LIN {X 1515.052182, Y -710.197391, Z 1081.267902, A 171.413610, B -84.396981, C 14.613938}
$VEL.CP = 0.413689
LIN {X 1501.214904, Y -685.245975, Z 1158.674723, A -67.168722, B -82.953967, C -113.051284}
$VEL.CP = 0.190345
LIN {X 1503.618606, Y -703.841555, Z 1161.613937, A -53.424637, B -75.671385, C -128.813765}
$VEL.CP = 0.344762
LIN {X 1503.369644, Y -731.179972, Z 1135.490226, A -29.044263, B -68.401278, C -154.121536}
$VEL.CP = 0.273556
LIN {X 1479.236315, Y -747.273893, Z 1082.959542, A 13.214283, B -66.997712, C 161.748104}
$VEL.CP = 0.366141
LIN {X 1449.618833, Y -725.259880, Z 1162.428491, A 13.938796, B -73.846280, C 158.792738}
$VEL.CP = 0.231387
LIN {X 1434.721629, Y -731.203153, Z 1203.224834, A -4.238259, B -59.500174, C 178.833504}
$VEL.CP = 0.605057
LIN {X 1452.930580, Y -824.949973, Z 1086.484103, A -8.976037, B -53.313432, C -177.725831}
$VEL.CP = 0.981664
LIN {X 1522.637757, Y -939.076683, Z 987.466240, A -1.226252, B -75.229533, C 177.340258}
$VEL.CP = 0.720969
LIN {X 1620.231558, Y -1024.021525, Z 943.695774, A 112.120158, B -82.973161, C 72.580926}
$VEL.CP = 0.463703
LIN {X 1661.263421, Y -1030.756361, Z 942.079005, A 111.942054, B -71.474916, C 78.281559}
$VEL.CP = 0.373943
LIN {X 1701.434026, Y -1011.486107, Z 946.189945, A 111.085876, B -61.507778, C 82.739398}
END