DEF robCode 
PTP $POS_ACT
$VEL.CP = 0.100000
LIN {X 1021.600000, Y -545.400000, Z 632.700000, A 0.000000, B 75.000000, C 0.000000}
LIN {X 1021.800000, Y -543.800000, Z 632.700000, A 0.000000, B 75.000000, C 0.000000}
LIN {X 1022.200000, Y -542.400000, Z 632.600000, A 0.000000, B 75.000000, C 0.000000}
LIN {X 1022.300000, Y -541.100000, Z 632.500000, A 0.000000, B 75.000000, C 0.000000}
LIN {X 1022.300000, Y -540.100000, Z 632.300000, A 0.000000, B 75.000000, C 0.000000}
LIN {X 1022.300000, Y -539.400000, Z 632.200000, A 0.000000, B 75.000000, C 0.000000}
LIN {X 1022.600000, Y -538.900000, Z 632.300000, A 0.000000, B 75.000000, C 0.000000}
LIN {X 1022.900000, Y -538.600000, Z 632.300000, A 0.000000, B 75.000000, C 0.000000}
LIN {X 1023.000000, Y -538.200000, Z 632.300000, A 0.000000, B 75.000000, C 0.000000}
LIN {X 1022.800000, Y -533.900000, Z 632.200000, A 0.000000, B 75.000000, C 0.000000}
LIN {X 1024.400000, Y -530.100000, Z 632.500000, A 0.000000, B 75.000000, C 0.000000}
LIN {X 1025.000000, Y -525.600000, Z 632.600000, A 0.000000, B 75.000000, C 0.000000}
LIN {X 1023.900000, Y -522.000000, Z 632.200000, A 0.000000, B 75.000000, C 0.000000}
LIN {X 1024.200000, Y -520.900000, Z 632.300000, A 0.000000, B 75.000000, C 0.000000}
LIN {X 1024.500000, Y -519.800000, Z 632.300000, A 0.000000, B 75.000000, C 0.000000}
LIN {X 1024.600000, Y -518.700000, Z 632.300000, A 0.000000, B 75.000000, C 0.000000}
LIN {X 1024.900000, Y -517.700000, Z 632.300000, A 0.000000, B 75.000000, C 0.000000}
LIN {X 1025.500000, Y -510.500000, Z 632.400000, A 0.000000, B 75.000000, C 0.000000}
LIN {X 1025.500000, Y -509.500000, Z 632.400000, A 0.000000, B 75.000000, C 0.000000}
LIN {X 1025.600000, Y -508.300000, Z 632.400000, A 0.000000, B 75.000000, C 0.000000}
LIN {X 1024.400000, Y -503.400000, Z 632.100000, A 0.000000, B 75.000000, C 0.000000}
LIN {X 1025.200000, Y -499.600000, Z 632.200000, A 0.000000, B 75.000000, C 0.000000}
LIN {X 1024.700000, Y -494.700000, Z 631.700000, A 0.000000, B 75.000000, C 0.000000}
LIN {X 1024.500000, Y -493.200000, Z 631.500000, A 0.000000, B 75.000000, C 0.000000}
LIN {X 1024.300000, Y -491.800000, Z 631.300000, A 0.000000, B 75.000000, C 0.000000}
LIN {X 1027.400000, Y -469.700000, Z 630.700000, A 0.000000, B 75.000000, C 0.000000}
LIN {X 1025.900000, Y -462.700000, Z 630.100000, A 0.000000, B 75.000000, C 0.000000}
LIN {X 1025.900000, Y -460.800000, Z 630.100000, A 0.000000, B 75.000000, C 0.000000}
LIN {X 1025.600000, Y -458.800000, Z 630.000000, A 0.000000, B 75.000000, C 0.000000}
LIN {X 1028.200000, Y -452.800000, Z 630.600000, A 0.000000, B 75.000000, C 0.000000}
LIN {X 1028.400000, Y -450.500000, Z 630.600000, A 0.000000, B 75.000000, C 0.000000}
LIN {X 1028.400000, Y -448.200000, Z 630.500000, A 0.000000, B 75.000000, C 0.000000}
LIN {X 1027.900000, Y -445.900000, Z 630.300000, A 0.000000, B 75.000000, C 0.000000}
LIN {X 1027.000000, Y -443.600000, Z 630.000000, A 0.000000, B 75.000000, C 0.000000}
LIN {X 1026.300000, Y -441.400000, Z 629.800000, A 0.000000, B 75.000000, C 0.000000}
LIN {X 1026.700000, Y -431.700000, Z 629.900000, A 0.000000, B 75.000000, C 0.000000}
LIN {X 1026.800000, Y -429.900000, Z 629.900000, A 0.000000, B 75.000000, C 0.000000}
LIN {X 1027.200000, Y -428.100000, Z 630.000000, A 0.000000, B 75.000000, C 0.000000}
LIN {X 1025.300000, Y -422.200000, Z 629.500000, A 0.000000, B 75.000000, C 0.000000}
LIN {X 1024.500000, Y -420.300000, Z 629.100000, A 0.000000, B 75.000000, C 0.000000}
LIN {X 1024.100000, Y -410.500000, Z 628.700000, A 0.000000, B 75.000000, C 0.000000}
LIN {X 1024.100000, Y -408.400000, Z 628.700000, A 0.000000, B 75.000000, C 0.000000}
LIN {X 1021.900000, Y -396.300000, Z 628.000000, A 0.000000, B 75.000000, C 0.000000}
LIN {X 1021.600000, Y -394.500000, Z 627.900000, A 0.000000, B 75.000000, C 0.000000}
LIN {X 1021.400000, Y -392.800000, Z 627.800000, A 0.000000, B 75.000000, C 0.000000}
LIN {X 1021.100000, Y -390.900000, Z 627.700000, A 0.000000, B 75.000000, C 0.000000}
LIN {X 1018.100000, Y -378.400000, Z 627.400000, A 0.000000, B 75.000000, C 0.000000}
LIN {X 1013.000000, Y -347.400000, Z 627.800000, A 0.000000, B 75.000000, C 0.000000}
LIN {X 1010.700000, Y -340.700000, Z 627.800000, A 0.000000, B 75.000000, C 0.000000}
LIN {X 1010.700000, Y -332.500000, Z 627.900000, A 0.000000, B 75.000000, C 0.000000}
LIN {X 1009.600000, Y -325.400000, Z 627.600000, A 0.000000, B 75.000000, C 0.000000}
LIN {X 1009.900000, Y -318.900000, Z 627.700000, A 0.000000, B 75.000000, C 0.000000}
LIN {X 1008.600000, Y -312.000000, Z 627.300000, A 0.000000, B 75.000000, C 0.000000}
LIN {X 1009.000000, Y -301.500000, Z 626.800000, A 0.000000, B 75.000000, C 0.000000}
LIN {X 1009.200000, Y -299.400000, Z 626.700000, A 0.000000, B 75.000000, C 0.000000}
LIN {X 1009.600000, Y -297.300000, Z 626.600000, A 0.000000, B 75.000000, C 0.000000}
LIN {X 1009.800000, Y -295.100000, Z 626.500000, A 0.000000, B 75.000000, C 0.000000}
LIN {X 1009.500000, Y -287.900000, Z 626.100000, A 0.000000, B 75.000000, C 0.000000}
LIN {X 1009.800000, Y -285.600000, Z 626.100000, A 0.000000, B 75.000000, C 0.000000}
LIN {X 1010.000000, Y -283.500000, Z 626.000000, A 0.000000, B 75.000000, C 0.000000}
LIN {X 1010.100000, Y -281.400000, Z 625.900000, A 0.000000, B 75.000000, C 0.000000}
LIN {X 1009.500000, Y -275.300000, Z 625.700000, A 0.000000, B 75.000000, C 0.000000}
LIN {X 1009.400000, Y -273.200000, Z 625.600000, A 0.000000, B 75.000000, C 0.000000}
LIN {X 1010.100000, Y -264.200000, Z 625.500000, A 0.000000, B 75.000000, C 0.000000}
LIN {X 1010.400000, Y -262.100000, Z 625.400000, A 0.000000, B 75.000000, C 0.000000}
LIN {X 1010.400000, Y -260.100000, Z 625.300000, A 0.000000, B 75.000000, C 0.000000}
LIN {X 1010.100000, Y -253.300000, Z 624.800000, A 0.000000, B 75.000000, C 0.000000}
LIN {X 1010.200000, Y -251.000000, Z 624.800000, A 0.000000, B 75.000000, C 0.000000}
LIN {X 1010.200000, Y -248.800000, Z 624.700000, A 0.000000, B 75.000000, C 0.000000}
LIN {X 1010.100000, Y -246.500000, Z 624.700000, A 0.000000, B 75.000000, C 0.000000}
LIN {X 1010.500000, Y -235.700000, Z 624.600000, A 0.000000, B 75.000000, C 0.000000}
LIN {X 1008.700000, Y -226.500000, Z 624.000000, A 0.000000, B 75.000000, C 0.000000}
LIN {X 1007.800000, Y -217.700000, Z 624.000000, A 0.000000, B 75.000000, C 0.000000}
LIN {X 1006.100000, Y -191.200000, Z 623.500000, A 0.000000, B 75.000000, C 0.000000}
LIN {X 1006.000000, Y -189.000000, Z 623.400000, A 0.000000, B 75.000000, C 0.000000}
LIN {X 1006.000000, Y -186.800000, Z 623.400000, A 0.000000, B 75.000000, C 0.000000}
LIN {X 1005.700000, Y -184.600000, Z 623.400000, A 0.000000, B 75.000000, C 0.000000}
LIN {X 1004.200000, Y -178.200000, Z 623.300000, A 0.000000, B 75.000000, C 0.000000}
LIN {X 1003.800000, Y -176.100000, Z 623.300000, A 0.000000, B 75.000000, C 0.000000}
LIN {X 1002.500000, Y -165.600000, Z 623.200000, A 0.000000, B 75.000000, C 0.000000}
LIN {X 1002.600000, Y -159.400000, Z 623.400000, A 0.000000, B 75.000000, C 0.000000}
LIN {X 1000.200000, Y -151.500000, Z 623.300000, A 0.000000, B 75.000000, C 0.000000}
LIN {X 1001.900000, Y -142.900000, Z 623.200000, A 0.000000, B 75.000000, C 0.000000}
LIN {X 1002.000000, Y -140.600000, Z 623.100000, A 0.000000, B 75.000000, C 0.000000}
LIN {X 1001.500000, Y -134.500000, Z 622.800000, A 0.000000, B 75.000000, C 0.000000}
LIN {X 1001.400000, Y -132.600000, Z 622.700000, A 0.000000, B 75.000000, C 0.000000}
LIN {X 1002.500000, Y -124.700000, Z 622.200000, A 0.000000, B 75.000000, C 0.000000}
LIN {X 1002.800000, Y -114.000000, Z 621.800000, A 0.000000, B 75.000000, C 0.000000}
LIN {X 1002.800000, Y -112.000000, Z 621.700000, A 0.000000, B 75.000000, C 0.000000}
LIN {X 1003.000000, Y -110.000000, Z 621.600000, A 0.000000, B 75.000000, C 0.000000}
LIN {X 1002.900000, Y -108.000000, Z 621.500000, A 0.000000, B 75.000000, C 0.000000}
LIN {X 1003.000000, Y -106.000000, Z 621.400000, A 0.000000, B 75.000000, C 0.000000}
LIN {X 1003.300000, Y -104.300000, Z 621.400000, A 0.000000, B 75.000000, C 0.000000}
LIN {X 1003.300000, Y -102.400000, Z 621.300000, A 0.000000, B 75.000000, C 0.000000}
LIN {X 1003.600000, Y -100.700000, Z 621.300000, A 0.000000, B 75.000000, C 0.000000}
LIN {X 1003.600000, Y -98.700000, Z 621.200000, A 0.000000, B 75.000000, C 0.000000}
LIN {X 1001.900000, Y -70.100000, Z 620.200000, A 0.000000, B 75.000000, C 0.000000}
LIN {X 1001.700000, Y -68.100000, Z 620.100000, A 0.000000, B 75.000000, C 0.000000}
LIN {X 1001.700000, Y -66.100000, Z 620.000000, A 0.000000, B 75.000000, C 0.000000}
LIN {X 1001.600000, Y -64.400000, Z 620.000000, A 0.000000, B 75.000000, C 0.000000}
LIN {X 1000.200000, Y -59.100000, Z 619.600000, A 0.000000, B 75.000000, C 0.000000}
LIN {X 999.800000, Y -57.400000, Z 619.400000, A 0.000000, B 75.000000, C 0.000000}
LIN {X 999.400000, Y -55.700000, Z 619.300000, A 0.000000, B 75.000000, C 0.000000}
LIN {X 999.800000, Y -54.100000, Z 619.200000, A 0.000000, B 75.000000, C 0.000000}
LIN {X 999.900000, Y -52.400000, Z 619.000000, A 0.000000, B 75.000000, C 0.000000}
LIN {X 1000.200000, Y -50.800000, Z 618.800000, A 0.000000, B 75.000000, C 0.000000}
LIN {X 999.100000, Y -34.200000, Z 615.500000, A 0.000000, B 75.000000, C 0.000000}
LIN {X 999.300000, Y -24.100000, Z 614.300000, A 0.000000, B 75.000000, C 0.000000}
LIN {X 1000.300000, Y -15.500000, Z 613.800000, A 0.000000, B 75.000000, C 0.000000}
LIN {X 1000.500000, Y -14.300000, Z 613.600000, A 0.000000, B 75.000000, C 0.000000}
LIN {X 1000.800000, Y -13.100000, Z 613.500000, A 0.000000, B 75.000000, C 0.000000}
LIN {X 1001.000000, Y -11.800000, Z 613.300000, A 0.000000, B 75.000000, C 0.000000}
LIN {X 1001.000000, Y -10.300000, Z 613.100000, A 0.000000, B 75.000000, C 0.000000}
LIN {X 1003.100000, Y -1.000000, Z 611.700000, A 0.000000, B 75.000000, C 0.000000}
LIN {X 1003.700000, Y 0.300000, Z 611.600000, A 0.000000, B 75.000000, C 0.000000}
LIN {X 1004.300000, Y 1.500000, Z 611.400000, A 0.000000, B 75.000000, C 0.000000}
LIN {X 1004.400000, Y 2.600000, Z 611.200000, A 0.000000, B 75.000000, C 0.000000}
LIN {X 1004.600000, Y 3.600000, Z 611.100000, A 0.000000, B 75.000000, C 0.000000}
LIN {X 1004.900000, Y 4.900000, Z 611.000000, A 0.000000, B 75.000000, C 0.000000}
LIN {X 1005.100000, Y 6.500000, Z 610.800000, A 0.000000, B 75.000000, C 0.000000}
LIN {X 1005.500000, Y 20.300000, Z 608.700000, A 0.000000, B 75.000000, C 0.000000}
LIN {X 1005.500000, Y 32.600000, Z 604.600000, A 0.000000, B 75.000000, C 0.000000}
LIN {X 1006.500000, Y 36.000000, Z 602.900000, A 0.000000, B 75.000000, C 0.000000}
LIN {X 1006.800000, Y 41.900000, Z 599.300000, A 0.000000, B 75.000000, C 0.000000}
LIN {X 1006.600000, Y 49.800000, Z 595.800000, A 0.000000, B 75.000000, C 0.000000}
LIN {X 1007.600000, Y 53.800000, Z 594.200000, A 0.000000, B 75.000000, C 0.000000}
LIN {X 1007.900000, Y 54.800000, Z 593.800000, A 0.000000, B 75.000000, C 0.000000}
LIN {X 1008.300000, Y 55.700000, Z 593.600000, A 0.000000, B 75.000000, C 0.000000}
LIN {X 1008.600000, Y 56.600000, Z 593.400000, A 0.000000, B 75.000000, C 0.000000}
LIN {X 1008.700000, Y 57.400000, Z 593.200000, A 0.000000, B 75.000000, C 0.000000}
LIN {X 1010.800000, Y 65.800000, Z 592.800000, A 0.000000, B 75.000000, C 0.000000}
LIN {X 1012.400000, Y 68.600000, Z 593.300000, A 0.000000, B 75.000000, C 0.000000}
LIN {X 1014.100000, Y 70.200000, Z 594.300000, A 0.000000, B 75.000000, C 0.000000}
LIN {X 1015.000000, Y 70.600000, Z 594.800000, A 0.000000, B 75.000000, C 0.000000}
LIN {X 1015.600000, Y 71.300000, Z 595.300000, A 0.000000, B 75.000000, C 0.000000}
LIN {X 1019.200000, Y 77.900000, Z 598.400000, A 0.000000, B 75.000000, C 0.000000}
LIN {X 1026.100000, Y 81.000000, Z 604.100000, A 0.000000, B 75.000000, C 0.000000}
LIN {X 1028.800000, Y 81.800000, Z 605.400000, A 0.000000, B 75.000000, C 0.000000}
LIN {X 1029.800000, Y 81.800000, Z 605.900000, A 0.000000, B 75.000000, C 0.000000}
LIN {X 1032.800000, Y 81.300000, Z 607.000000, A 0.000000, B 75.000000, C 0.000000}
LIN {X 1037.000000, Y 80.000000, Z 608.100000, A 0.000000, B 75.000000, C 0.000000}
LIN {X 1037.900000, Y 79.700000, Z 608.300000, A 0.000000, B 75.000000, C 0.000000}
LIN {X 1039.000000, Y 79.600000, Z 608.400000, A 0.000000, B 75.000000, C 0.000000}
LIN {X 1040.000000, Y 79.300000, Z 608.500000, A 0.000000, B 75.000000, C 0.000000}
LIN {X 1043.800000, Y 78.600000, Z 608.900000, A 0.000000, B 75.000000, C 0.000000}
LIN {X 1071.500000, Y 66.900000, Z 609.900000, A 0.000000, B 75.000000, C 0.000000}
LIN {X 1098.100000, Y 51.700000, Z 615.300000, A 0.000000, B 75.000000, C 0.000000}
LIN {X 1105.700000, Y 46.800000, Z 616.700000, A 0.000000, B 75.000000, C 0.000000}
LIN {X 1117.200000, Y 40.000000, Z 618.000000, A 0.000000, B 75.000000, C 0.000000}
LIN {X 1118.800000, Y 38.900000, Z 618.100000, A 0.000000, B 75.000000, C 0.000000}
LIN {X 1124.300000, Y 34.500000, Z 618.700000, A 0.000000, B 75.000000, C 0.000000}
LIN {X 1125.900000, Y 33.400000, Z 618.900000, A 0.000000, B 75.000000, C 0.000000}
LIN {X 1127.400000, Y 32.500000, Z 619.100000, A 0.000000, B 75.000000, C 0.000000}
LIN {X 1137.400000, Y 27.400000, Z 620.500000, A 0.000000, B 75.000000, C 0.000000}
LIN {X 1138.800000, Y 26.800000, Z 620.600000, A 0.000000, B 75.000000, C 0.000000}
LIN {X 1155.600000, Y 15.800000, Z 621.000000, A 0.000000, B 75.000000, C 0.000000}
LIN {X 1156.900000, Y 14.800000, Z 621.000000, A 0.000000, B 75.000000, C 0.000000}
LIN {X 1158.300000, Y 13.800000, Z 621.100000, A 0.000000, B 75.000000, C 0.000000}
LIN {X 1179.300000, Y 3.200000, Z 621.400000, A 0.000000, B 75.000000, C 0.000000}
LIN {X 1186.800000, Y -2.000000, Z 621.800000, A 0.000000, B 75.000000, C 0.000000}
LIN {X 1188.200000, Y -2.900000, Z 621.900000, A 0.000000, B 75.000000, C 0.000000}
LIN {X 1189.400000, Y -3.700000, Z 621.900000, A 0.000000, B 75.000000, C 0.000000}
LIN {X 1190.600000, Y -4.400000, Z 622.000000, A 0.000000, B 75.000000, C 0.000000}
LIN {X 1195.200000, Y -7.900000, Z 622.000000, A 0.000000, B 75.000000, C 0.000000}
LIN {X 1196.600000, Y -8.800000, Z 622.100000, A 0.000000, B 75.000000, C 0.000000}
LIN {X 1206.600000, Y -17.000000, Z 622.400000, A 0.000000, B 75.000000, C 0.000000}
LIN {X 1208.000000, Y -17.700000, Z 622.500000, A 0.000000, B 75.000000, C 0.000000}
LIN {X 1209.100000, Y -18.700000, Z 622.500000, A 0.000000, B 75.000000, C 0.000000}
LIN {X 1210.100000, Y -19.700000, Z 622.600000, A 0.000000, B 75.000000, C 0.000000}
LIN {X 1211.100000, Y -20.700000, Z 622.600000, A 0.000000, B 75.000000, C 0.000000}
LIN {X 1216.300000, Y -24.000000, Z 622.600000, A 0.000000, B 75.000000, C 0.000000}
LIN {X 1225.600000, Y -33.400000, Z 622.500000, A 0.000000, B 75.000000, C 0.000000}
LIN {X 1228.100000, Y -37.200000, Z 622.700000, A 0.000000, B 75.000000, C 0.000000}
LIN {X 1234.100000, Y -42.900000, Z 622.800000, A 0.000000, B 75.000000, C 0.000000}
LIN {X 1245.700000, Y -50.400000, Z 623.100000, A 0.000000, B 75.000000, C 0.000000}
LIN {X 1251.500000, Y -56.000000, Z 623.200000, A 0.000000, B 75.000000, C 0.000000}
LIN {X 1254.200000, Y -59.600000, Z 623.300000, A 0.000000, B 75.000000, C 0.000000}
LIN {X 1254.900000, Y -61.200000, Z 623.200000, A 0.000000, B 75.000000, C 0.000000}
LIN {X 1257.500000, Y -62.800000, Z 623.400000, A 0.000000, B 75.000000, C 0.000000}
LIN {X 1259.100000, Y -64.900000, Z 623.400000, A 0.000000, B 75.000000, C 0.000000}
LIN {X 1261.600000, Y -66.600000, Z 623.400000, A 0.000000, B 75.000000, C 0.000000}
LIN {X 1264.000000, Y -68.100000, Z 623.600000, A 0.000000, B 75.000000, C 0.000000}
LIN {X 1264.200000, Y -69.200000, Z 623.600000, A 0.000000, B 75.000000, C 0.000000}
LIN {X 1265.300000, Y -69.700000, Z 623.500000, A 0.000000, B 75.000000, C 0.000000}
LIN {X 1265.600000, Y -69.800000, Z 623.500000, A 0.000000, B 75.000000, C 0.000000}
LIN {X 1265.800000, Y -69.900000, Z 623.500000, A 0.000000, B 75.000000, C 0.000000}
LIN {X 1268.700000, Y -72.800000, Z 623.600000, A 0.000000, B 75.000000, C 0.000000}
LIN {X 1268.900000, Y -73.400000, Z 623.600000, A 0.000000, B 75.000000, C 0.000000}
LIN {X 1269.200000, Y -73.900000, Z 623.600000, A 0.000000, B 75.000000, C 0.000000}
LIN {X 1274.700000, Y -76.600000, Z 623.700000, A 0.000000, B 75.000000, C 0.000000}
LIN {X 1275.400000, Y -76.900000, Z 623.700000, A 0.000000, B 75.000000, C 0.000000}
LIN {X 1278.000000, Y -79.000000, Z 623.700000, A 0.000000, B 75.000000, C 0.000000}
LIN {X 1285.300000, Y -81.500000, Z 623.800000, A 0.000000, B 75.000000, C 0.000000}
LIN {X 1295.900000, Y -87.800000, Z 623.900000, A 0.000000, B 75.000000, C 0.000000}
LIN {X 1297.600000, Y -88.600000, Z 623.800000, A 0.000000, B 75.000000, C 0.000000}
LIN {X 1299.000000, Y -89.500000, Z 623.800000, A 0.000000, B 75.000000, C 0.000000}
LIN {X 1327.600000, Y -103.000000, Z 623.500000, A 0.000000, B 75.000000, C 0.000000}
LIN {X 1348.600000, Y -114.600000, Z 623.300000, A 0.000000, B 75.000000, C 0.000000}
LIN {X 1359.700000, Y -120.000000, Z 622.900000, A 0.000000, B 75.000000, C 0.000000}
LIN {X 1366.600000, Y -124.100000, Z 622.800000, A 0.000000, B 75.000000, C 0.000000}
LIN {X 1368.900000, Y -125.500000, Z 622.700000, A 0.000000, B 75.000000, C 0.000000}
LIN {X 1371.300000, Y -126.900000, Z 622.700000, A 0.000000, B 75.000000, C 0.000000}
LIN {X 1373.700000, Y -128.200000, Z 622.700000, A 0.000000, B 75.000000, C 0.000000}
LIN {X 1376.100000, Y -129.500000, Z 622.600000, A 0.000000, B 75.000000, C 0.000000}
LIN {X 1378.500000, Y -130.900000, Z 622.600000, A 0.000000, B 75.000000, C 0.000000}
LIN {X 1391.500000, Y -140.500000, Z 622.100000, A 0.000000, B 75.000000, C 0.000000}
LIN {X 1394.000000, Y -142.300000, Z 622.100000, A 0.000000, B 75.000000, C 0.000000}
LIN {X 1396.300000, Y -144.100000, Z 622.100000, A 0.000000, B 75.000000, C 0.000000}
LIN {X 1398.700000, Y -145.700000, Z 622.100000, A 0.000000, B 75.000000, C 0.000000}
LIN {X 1400.500000, Y -147.100000, Z 622.100000, A 0.000000, B 75.000000, C 0.000000}
LIN {X 1418.400000, Y -158.800000, Z 621.600000, A 0.000000, B 75.000000, C 0.000000}
LIN {X 1428.100000, Y -166.100000, Z 621.300000, A 0.000000, B 75.000000, C 0.000000}
LIN {X 1457.900000, Y -192.100000, Z 621.200000, A 0.000000, B 75.000000, C 0.000000}
LIN {X 1466.500000, Y -198.900000, Z 620.700000, A 0.000000, B 75.000000, C 0.000000}
LIN {X 1476.400000, Y -209.500000, Z 620.900000, A 0.000000, B 75.000000, C 0.000000}
LIN {X 1487.500000, Y -220.200000, Z 620.700000, A 0.000000, B 75.000000, C 0.000000}
LIN {X 1498.800000, Y -238.900000, Z 620.900000, A 0.000000, B 75.000000, C 0.000000}
LIN {X 1505.300000, Y -252.700000, Z 621.300000, A 0.000000, B 75.000000, C 0.000000}
LIN {X 1507.700000, Y -259.700000, Z 621.400000, A 0.000000, B 75.000000, C 0.000000}
LIN {X 1508.300000, Y -261.400000, Z 621.400000, A 0.000000, B 75.000000, C 0.000000}
LIN {X 1512.300000, Y -280.000000, Z 621.900000, A 0.000000, B 75.000000, C 0.000000}
LIN {X 1512.600000, Y -281.800000, Z 621.900000, A 0.000000, B 75.000000, C 0.000000}
LIN {X 1512.900000, Y -283.600000, Z 621.900000, A 0.000000, B 75.000000, C 0.000000}
LIN {X 1513.300000, Y -285.500000, Z 621.900000, A 0.000000, B 75.000000, C 0.000000}
LIN {X 1513.800000, Y -287.800000, Z 621.900000, A 0.000000, B 75.000000, C 0.000000}
LIN {X 1515.100000, Y -295.600000, Z 622.200000, A 0.000000, B 75.000000, C 0.000000}
LIN {X 1515.200000, Y -297.900000, Z 622.400000, A 0.000000, B 75.000000, C 0.000000}
LIN {X 1515.400000, Y -299.800000, Z 622.500000, A 0.000000, B 75.000000, C 0.000000}
LIN {X 1516.800000, Y -303.500000, Z 622.700000, A 0.000000, B 75.000000, C 0.000000}
LIN {X 1518.000000, Y -310.000000, Z 622.800000, A 0.000000, B 75.000000, C 0.000000}
LIN {X 1518.400000, Y -312.200000, Z 623.000000, A 0.000000, B 75.000000, C 0.000000}
LIN {X 1518.600000, Y -314.300000, Z 623.100000, A 0.000000, B 75.000000, C 0.000000}
LIN {X 1518.800000, Y -316.200000, Z 623.300000, A 0.000000, B 75.000000, C 0.000000}
LIN {X 1518.800000, Y -319.600000, Z 623.400000, A 0.000000, B 75.000000, C 0.000000}
LIN {X 1520.100000, Y -323.300000, Z 623.300000, A 0.000000, B 75.000000, C 0.000000}
LIN {X 1520.600000, Y -334.500000, Z 623.800000, A 0.000000, B 75.000000, C 0.000000}
LIN {X 1520.600000, Y -336.200000, Z 624.000000, A 0.000000, B 75.000000, C 0.000000}
LIN {X 1520.600000, Y -337.600000, Z 624.100000, A 0.000000, B 75.000000, C 0.000000}
LIN {X 1518.000000, Y -347.300000, Z 623.700000, A 0.000000, B 75.000000, C 0.000000}
LIN {X 1516.500000, Y -356.300000, Z 624.200000, A 0.000000, B 75.000000, C 0.000000}
LIN {X 1516.200000, Y -357.200000, Z 624.300000, A 0.000000, B 75.000000, C 0.000000}
LIN {X 1514.100000, Y -362.500000, Z 624.000000, A 0.000000, B 75.000000, C 0.000000}
LIN {X 1512.900000, Y -374.100000, Z 624.700000, A 0.000000, B 75.000000, C 0.000000}
LIN {X 1512.800000, Y -374.900000, Z 624.900000, A 0.000000, B 75.000000, C 0.000000}
LIN {X 1512.400000, Y -375.500000, Z 625.000000, A 0.000000, B 75.000000, C 0.000000}
LIN {X 1512.200000, Y -376.100000, Z 625.000000, A 0.000000, B 75.000000, C 0.000000}
LIN {X 1511.800000, Y -377.000000, Z 625.000000, A 0.000000, B 75.000000, C 0.000000}
LIN {X 1511.600000, Y -378.300000, Z 624.900000, A 0.000000, B 75.000000, C 0.000000}
LIN {X 1511.100000, Y -380.100000, Z 624.800000, A 0.000000, B 75.000000, C 0.000000}
LIN {X 1509.800000, Y -390.200000, Z 625.200000, A 0.000000, B 75.000000, C 0.000000}
LIN {X 1509.500000, Y -391.700000, Z 625.400000, A 0.000000, B 75.000000, C 0.000000}
LIN {X 1509.300000, Y -392.600000, Z 625.600000, A 0.000000, B 75.000000, C 0.000000}
LIN {X 1509.200000, Y -393.400000, Z 625.700000, A 0.000000, B 75.000000, C 0.000000}
LIN {X 1509.100000, Y -394.100000, Z 625.800000, A 0.000000, B 75.000000, C 0.000000}
LIN {X 1506.900000, Y -413.000000, Z 626.400000, A 0.000000, B 75.000000, C 0.000000}
LIN {X 1506.800000, Y -413.900000, Z 626.500000, A 0.000000, B 75.000000, C 0.000000}
LIN {X 1506.800000, Y -414.800000, Z 626.500000, A 0.000000, B 75.000000, C 0.000000}
LIN {X 1506.700000, Y -429.900000, Z 626.800000, A 0.000000, B 75.000000, C 0.000000}
LIN {X 1507.200000, Y -430.600000, Z 627.000000, A 0.000000, B 75.000000, C 0.000000}
LIN {X 1507.300000, Y -430.900000, Z 627.000000, A 0.000000, B 75.000000, C 0.000000}
LIN {X 1507.600000, Y -431.300000, Z 627.000000, A 0.000000, B 75.000000, C 0.000000}
LIN {X 1508.000000, Y -434.400000, Z 626.700000, A 0.000000, B 75.000000, C 0.000000}
LIN {X 1507.600000, Y -440.500000, Z 626.600000, A 0.000000, B 75.000000, C 0.000000}
LIN {X 1507.700000, Y -442.600000, Z 626.800000, A 0.000000, B 75.000000, C 0.000000}
LIN {X 1508.000000, Y -444.200000, Z 627.000000, A 0.000000, B 75.000000, C 0.000000}
LIN {X 1508.300000, Y -445.400000, Z 627.200000, A 0.000000, B 75.000000, C 0.000000}
LIN {X 1508.600000, Y -446.300000, Z 627.400000, A 0.000000, B 75.000000, C 0.000000}
LIN {X 1508.700000, Y -446.800000, Z 627.400000, A 0.000000, B 75.000000, C 0.000000}
LIN {X 1509.500000, Y -451.900000, Z 627.400000, A 0.000000, B 75.000000, C 0.000000}
LIN {X 1509.600000, Y -453.800000, Z 627.400000, A 0.000000, B 75.000000, C 0.000000}
LIN {X 1509.200000, Y -459.600000, Z 627.600000, A 0.000000, B 75.000000, C 0.000000}
LIN {X 1509.000000, Y -460.400000, Z 627.700000, A 0.000000, B 75.000000, C 0.000000}
LIN {X 1509.000000, Y -461.300000, Z 627.800000, A 0.000000, B 75.000000, C 0.000000}
LIN {X 1510.600000, Y -469.300000, Z 627.800000, A 0.000000, B 75.000000, C 0.000000}
LIN {X 1511.000000, Y -470.600000, Z 627.900000, A 0.000000, B 75.000000, C 0.000000}
LIN {X 1511.600000, Y -475.700000, Z 628.000000, A 0.000000, B 75.000000, C 0.000000}
LIN {X 1511.300000, Y -476.800000, Z 627.900000, A 0.000000, B 75.000000, C 0.000000}
LIN {X 1510.800000, Y -478.000000, Z 627.800000, A 0.000000, B 75.000000, C 0.000000}
LIN {X 1510.600000, Y -479.300000, Z 627.800000, A 0.000000, B 75.000000, C 0.000000}
LIN {X 1512.100000, Y -483.000000, Z 628.200000, A 0.000000, B 75.000000, C 0.000000}
LIN {X 1512.600000, Y -484.000000, Z 628.300000, A 0.000000, B 75.000000, C 0.000000}
LIN {X 1513.300000, Y -484.800000, Z 628.400000, A 0.000000, B 75.000000, C 0.000000}
LIN {X 1513.600000, Y -485.500000, Z 628.400000, A 0.000000, B 75.000000, C 0.000000}
LIN {X 1514.800000, Y -493.800000, Z 628.800000, A 0.000000, B 75.000000, C 0.000000}
LIN {X 1515.200000, Y -495.100000, Z 628.900000, A 0.000000, B 75.000000, C 0.000000}
LIN {X 1512.700000, Y -511.400000, Z 629.000000, A 0.000000, B 75.000000, C 0.000000}
LIN {X 1512.400000, Y -513.000000, Z 629.000000, A 0.000000, B 75.000000, C 0.000000}
LIN {X 1511.100000, Y -517.400000, Z 629.400000, A 0.000000, B 75.000000, C 0.000000}
LIN {X 1510.700000, Y -518.400000, Z 629.500000, A 0.000000, B 75.000000, C 0.000000}
LIN {X 1510.300000, Y -519.200000, Z 629.700000, A 0.000000, B 75.000000, C 0.000000}
LIN {X 1510.000000, Y -519.600000, Z 629.800000, A 0.000000, B 75.000000, C 0.000000}
LIN {X 1508.600000, Y -522.200000, Z 629.600000, A 0.000000, B 75.000000, C 0.000000}
LIN {X 1508.000000, Y -523.700000, Z 629.600000, A 0.000000, B 75.000000, C 0.000000}
LIN {X 1507.400000, Y -525.300000, Z 629.600000, A 0.000000, B 75.000000, C 0.000000}
LIN {X 1506.100000, Y -530.300000, Z 630.300000, A 0.000000, B 75.000000, C 0.000000}
LIN {X 1496.900000, Y -549.100000, Z 630.900000, A 0.000000, B 75.000000, C 0.000000}
LIN {X 1494.400000, Y -551.300000, Z 631.100000, A 0.000000, B 75.000000, C 0.000000}
LIN {X 1493.800000, Y -552.100000, Z 631.100000, A 0.000000, B 75.000000, C 0.000000}
LIN {X 1488.000000, Y -561.900000, Z 631.500000, A 0.000000, B 75.000000, C 0.000000}
LIN {X 1487.800000, Y -562.400000, Z 631.600000, A 0.000000, B 75.000000, C 0.000000}
LIN {X 1487.500000, Y -562.900000, Z 631.700000, A 0.000000, B 75.000000, C 0.000000}
LIN {X 1483.200000, Y -568.800000, Z 631.900000, A 0.000000, B 75.000000, C 0.000000}
LIN {X 1482.400000, Y -569.900000, Z 631.900000, A 0.000000, B 75.000000, C 0.000000}
LIN {X 1479.900000, Y -572.400000, Z 631.800000, A 0.000000, B 75.000000, C 0.000000}
LIN {X 1468.800000, Y -577.600000, Z 632.000000, A 0.000000, B 75.000000, C 0.000000}
LIN {X 1460.700000, Y -580.900000, Z 632.200000, A 0.000000, B 75.000000, C 0.000000}
LIN {X 1444.300000, Y -586.200000, Z 632.100000, A 0.000000, B 75.000000, C 0.000000}
LIN {X 1423.300000, Y -589.500000, Z 632.300000, A 0.000000, B 75.000000, C 0.000000}
LIN {X 1421.600000, Y -589.600000, Z 632.300000, A 0.000000, B 75.000000, C 0.000000}
LIN {X 1420.000000, Y -589.800000, Z 632.400000, A 0.000000, B 75.000000, C 0.000000}
LIN {X 1418.500000, Y -590.000000, Z 632.400000, A 0.000000, B 75.000000, C 0.000000}
LIN {X 1400.300000, Y -591.700000, Z 632.400000, A 0.000000, B 75.000000, C 0.000000}
LIN {X 1398.300000, Y -591.900000, Z 632.400000, A 0.000000, B 75.000000, C 0.000000}
LIN {X 1392.400000, Y -591.600000, Z 632.300000, A 0.000000, B 75.000000, C 0.000000}
LIN {X 1387.200000, Y -590.300000, Z 632.500000, A 0.000000, B 75.000000, C 0.000000}
LIN {X 1385.300000, Y -589.900000, Z 632.600000, A 0.000000, B 75.000000, C 0.000000}
LIN {X 1383.300000, Y -589.600000, Z 632.600000, A 0.000000, B 75.000000, C 0.000000}
LIN {X 1365.100000, Y -587.300000, Z 632.800000, A 0.000000, B 75.000000, C 0.000000}
LIN {X 1363.200000, Y -586.800000, Z 633.000000, A 0.000000, B 75.000000, C 0.000000}
LIN {X 1342.900000, Y -583.600000, Z 632.400000, A 0.000000, B 75.000000, C 0.000000}
LIN {X 1340.500000, Y -583.100000, Z 632.300000, A 0.000000, B 75.000000, C 0.000000}
LIN {X 1338.200000, Y -582.700000, Z 632.300000, A 0.000000, B 75.000000, C 0.000000}
LIN {X 1335.700000, Y -582.400000, Z 632.200000, A 0.000000, B 75.000000, C 0.000000}
LIN {X 1333.200000, Y -582.000000, Z 632.100000, A 0.000000, B 75.000000, C 0.000000}
LIN {X 1330.600000, Y -581.800000, Z 632.000000, A 0.000000, B 75.000000, C 0.000000}
LIN {X 1299.700000, Y -580.800000, Z 632.300000, A 0.000000, B 75.000000, C 0.000000}
LIN {X 1288.800000, Y -580.700000, Z 631.800000, A 0.000000, B 75.000000, C 0.000000}
LIN {X 1285.900000, Y -580.800000, Z 631.600000, A 0.000000, B 75.000000, C 0.000000}
LIN {X 1283.000000, Y -580.900000, Z 631.600000, A 0.000000, B 75.000000, C 0.000000}
LIN {X 1280.000000, Y -580.800000, Z 631.500000, A 0.000000, B 75.000000, C 0.000000}
LIN {X 1277.200000, Y -580.800000, Z 631.500000, A 0.000000, B 75.000000, C 0.000000}
LIN {X 1274.400000, Y -580.600000, Z 631.400000, A 0.000000, B 75.000000, C 0.000000}
LIN {X 1254.000000, Y -582.000000, Z 631.500000, A 0.000000, B 75.000000, C 0.000000}
LIN {X 1224.300000, Y -579.800000, Z 631.600000, A 0.000000, B 75.000000, C 0.000000}
LIN {X 1201.200000, Y -577.700000, Z 630.400000, A 0.000000, B 75.000000, C 0.000000}
LIN {X 1188.700000, Y -576.200000, Z 630.400000, A 0.000000, B 75.000000, C 0.000000}
LIN {X 1185.100000, Y -576.000000, Z 630.300000, A 0.000000, B 75.000000, C 0.000000}
LIN {X 1181.800000, Y -575.700000, Z 630.200000, A 0.000000, B 75.000000, C 0.000000}
LIN {X 1178.600000, Y -575.500000, Z 630.100000, A 0.000000, B 75.000000, C 0.000000}
LIN {X 1151.000000, Y -570.000000, Z 630.500000, A 0.000000, B 75.000000, C 0.000000}
LIN {X 1148.800000, Y -569.700000, Z 630.600000, A 0.000000, B 75.000000, C 0.000000}
LIN {X 1133.200000, Y -567.400000, Z 630.200000, A 0.000000, B 75.000000, C 0.000000}
LIN {X 1121.700000, Y -564.900000, Z 630.300000, A 0.000000, B 75.000000, C 0.000000}
LIN {X 1119.700000, Y -564.500000, Z 630.400000, A 0.000000, B 75.000000, C 0.000000}
LIN {X 1105.100000, Y -563.400000, Z 630.700000, A 0.000000, B 75.000000, C 0.000000}
LIN {X 1095.700000, Y -560.800000, Z 630.900000, A 0.000000, B 75.000000, C 0.000000}
LIN {X 1093.500000, Y -560.500000, Z 630.900000, A 0.000000, B 75.000000, C 0.000000}
LIN {X 1083.200000, Y -560.200000, Z 631.400000, A 0.000000, B 75.000000, C 0.000000}
LIN {X 1081.500000, Y -559.900000, Z 631.400000, A 0.000000, B 75.000000, C 0.000000}
LIN {X 1080.200000, Y -559.800000, Z 631.500000, A 0.000000, B 75.000000, C 0.000000}
LIN {X 1078.600000, Y -559.600000, Z 631.400000, A 0.000000, B 75.000000, C 0.000000}
LIN {X 1077.500000, Y -559.400000, Z 631.500000, A 0.000000, B 75.000000, C 0.000000}
LIN {X 1076.100000, Y -559.300000, Z 631.500000, A 0.000000, B 75.000000, C 0.000000}
LIN {X 1074.900000, Y -559.100000, Z 631.500000, A 0.000000, B 75.000000, C 0.000000}
LIN {X 1073.300000, Y -559.000000, Z 631.500000, A 0.000000, B 75.000000, C 0.000000}
LIN {X 1071.700000, Y -558.900000, Z 631.400000, A 0.000000, B 75.000000, C 0.000000}
LIN {X 1070.300000, Y -558.800000, Z 631.500000, A 0.000000, B 75.000000, C 0.000000}
LIN {X 1068.900000, Y -558.600000, Z 631.500000, A 0.000000, B 75.000000, C 0.000000}
LIN {X 1067.400000, Y -558.500000, Z 631.600000, A 0.000000, B 75.000000, C 0.000000}
LIN {X 1065.800000, Y -558.300000, Z 631.600000, A 0.000000, B 75.000000, C 0.000000}
LIN {X 1064.400000, Y -558.200000, Z 631.700000, A 0.000000, B 75.000000, C 0.000000}
LIN {X 1051.800000, Y -558.100000, Z 632.000000, A 0.000000, B 75.000000, C 0.000000}
LIN {X 1042.400000, Y -555.900000, Z 632.200000, A 0.000000, B 75.000000, C 0.000000}
LIN {X 1034.900000, Y -554.600000, Z 632.300000, A 0.000000, B 75.000000, C 0.000000}
LIN {X 1034.100000, Y -554.400000, Z 632.400000, A 0.000000, B 75.000000, C 0.000000}
LIN {X 1033.900000, Y -554.300000, Z 632.400000, A 0.000000, B 75.000000, C 0.000000}
LIN {X 1033.500000, Y -554.300000, Z 632.300000, A 0.000000, B 75.000000, C 0.000000}
LIN {X 1034.400000, Y -554.700000, Z 632.600000, A 0.000000, B 75.000000, C 0.000000}
LIN {X 1034.600000, Y -554.700000, Z 632.700000, A 0.000000, B 75.000000, C 0.000000}
LIN {X 1034.900000, Y -554.600000, Z 632.800000, A 0.000000, B 75.000000, C 0.000000}
LIN {X 1035.000000, Y -554.700000, Z 632.900000, A 0.000000, B 75.000000, C 0.000000}
LIN {X 1034.900000, Y -554.700000, Z 632.800000, A 0.000000, B 75.000000, C 0.000000}
LIN {X 1035.000000, Y -554.700000, Z 632.900000, A 0.000000, B 75.000000, C 0.000000}
LIN {X 1035.100000, Y -554.700000, Z 632.900000, A 0.000000, B 75.000000, C 0.000000}
LIN {X 1035.400000, Y -554.800000, Z 633.000000, A 0.000000, B 75.000000, C 0.000000}
LIN {X 1035.500000, Y -554.800000, Z 633.000000, A 0.000000, B 75.000000, C 0.000000}
LIN {X 1034.400000, Y -554.400000, Z 632.700000, A 0.000000, B 75.000000, C 0.000000}
LIN {X 1034.300000, Y -554.300000, Z 632.700000, A 0.000000, B 75.000000, C 0.000000}
LIN {X 1034.300000, Y -554.200000, Z 632.700000, A 0.000000, B 75.000000, C 0.000000}
LIN {X 1034.300000, Y -554.200000, Z 632.700000, A 0.000000, B 75.000000, C 0.000000}
LIN {X 1034.300000, Y -554.200000, Z 632.700000, A 0.000000, B 75.000000, C 0.000000}
LIN {X 1034.400000, Y -554.200000, Z 632.700000, A 0.000000, B 75.000000, C 0.000000}
LIN {X 1034.300000, Y -554.100000, Z 632.700000, A 0.000000, B 75.000000, C 0.000000}
LIN {X 1034.300000, Y -554.100000, Z 632.700000, A 0.000000, B 75.000000, C 0.000000}
LIN {X 1034.100000, Y -554.100000, Z 632.600000, A 0.000000, B 75.000000, C 0.000000}
LIN {X 1033.600000, Y -554.100000, Z 632.600000, A 0.000000, B 75.000000, C 0.000000}
LIN {X 1033.800000, Y -554.100000, Z 632.600000, A 0.000000, B 75.000000, C 0.000000}
LIN {X 1033.400000, Y -554.100000, Z 632.500000, A 0.000000, B 75.000000, C 0.000000}
LIN {X 1033.300000, Y -554.100000, Z 632.500000, A 0.000000, B 75.000000, C 0.000000}
LIN {X 1034.100000, Y -554.000000, Z 632.700000, A 0.000000, B 75.000000, C 0.000000}
LIN {X 1033.900000, Y -554.200000, Z 632.600000, A 0.000000, B 75.000000, C 0.000000}
END